if(place_position[1] == 0):
  movej(p[-0.226,0.525,0.05,2.23,2.22,0])
elif(place_position[1] == 1):
  movej(p[-0.226,0.350,0.05075,2.23,2.22,0])
elif(place_position[1] == 2):
  movej(p[-0.226,0.175,0.05075,2.23,2.22,0])
elif(place_position[1] == 3):
  movej(p[-0.226,-0,0.05075,2.23,2.22,0])
elif(var_2 == "4"):
  movej(p[-0.226,-0.175,0.05075,2.23,2.22,0])
elif(var_2 == "5"):
  movej(p[-0.226,-0.350,0.05075,2.23,2.22,0])
elif(var_2 == "6"):
  movej(p[-0.22575,-0.525,0.05075,2.230,2.215,0])
elif(var_2 == "7"):
  movej(p[-0.32575,0.525,0.05075,2.230,2.215,0])
elif(var_2 == "8"):
  movej(p[-0.32575,0.350,0.05075,2.230,2.215,0])
elif(var_2 == "9"):
  movej(p[-0.32575,0.175,0.05075,2.230,2.215,0])
elif(var_2 == "10"):
  movej(p[-0.32575,0,0.05075,2.230,2.215,0])
elif(var_2 == "11"):
  movej(p[-0.32575,-0.175,0.05075,2.230,2.215,0])
elif(var_2 == "12"):
  movej(p[-0.32575,-0.350,0.05075,2.230,2.215,0])
elif(var_2 == "13"):
  movej(p[-0.32575,-0.525,0.05075,2.230,2.215,0])
elif(var_2 == "14"):
  movej(p[-0.42575,0.525,0.05075,2.230,2.215,0])
elif(var_2 == "15"):
  movej(p[-0.42575,0.350,0.05075,2.230,2.215,0])
elif(var_2 == "16"):
  movej(p[-0.42575,0.175,0.05075,2.230,2.215,0])
elif(var_2 == "17"):
  movej(p[-0.42575,0,0.05075,2.230,2.215,0])
elif(var_2 == "18"):
  movej(p[-0.42575,-0.175,0.05075,2.230,2.215,0])
elif(var_2 == "19"):
  movej(p[-0.42575,-0.350,0.05075,2.230,2.215,0])
elif(var_2 == "20"):
  movej(p[-0.42575,-0.525,0.05075,2.230,2.215,0])
elif(var_2 == "21"):
  movej(p[-0.52575,0.525,0.05075,2.230,2.215,0])
elif(var_2 == "22"):
  movej(p[-0.52575,0.350,0.05075,2.230,2.215,0])
elif(var_2 == "23"):
  movej(p[-0.52575,0.175,0.05075,2.230,2.215,0])
elif(var_2 == "24"):
  movej(p[-0.52575,0,0.05075,2.230,2.215,0])
elif(var_2 == "25"):
  movej(p[-0.52575,-0.175,0.05075,2.230,2.215,0])
elif(var_2 == "26"):
  movej(p[-0.52575,-0.350,0.05075,2.230,2.215,0])
elif(var_2 == "27"):
  movej(p[-0.52575,-0.525,0.05075,2.230,2.215,0])
elif(var_2 == "28"):
  movej(p[-0.62575,0.525,0.05075,2.230,2.215,0])
elif(var_2 == "29"):
  movej(p[-0.62575,0.350,0.05075,2.230,2.215,0])
elif(var_2 == "30"):
  movej(p[-0.62575,0.175,0.05075,2.230,2.215,0])
elif(var_2 == "31"):
  movej(p[-0.62575,0,0.05075,2.230,2.215,0])
elif(var_2 == "32"):
  movej(p[-0.62575,-0.175,0.05075,2.230,2.215,0])
elif(var_2 == "33"):
  movej(p[-0.62575,-0.350,0.05075,2.230,2.215,0])
elif(var_2 == "34"):
  movej(p[-0.62575,-0.525,0.05075,2.230,2.215,0])
elif(var_2 == "35"):
  movej(p[-0.72575,0.525,0.05075,2.230,2.215,0])
elif(var_2 == "36"):
  movej(p[-0.72575,0.350,0.05075,2.230,2.215,0])
elif(var_2 == "37"):
  movej(p[-0.72575,0.175,0.05075,2.230,2.215,0])
elif(var_2 == "38"):
  movej(p[-0.72575,0,0.05075,2.230,2.215,0])
elif(var_2 == "39"):
  movej(p[-0.72575,-0.175,0.05075,2.230,2.215,0])
elif(var_2 == "40"):
  movej(p[-0.72575,-0.350,0.05075,2.230,2.215,0])
elif(var_2 == "41"):
  movej(p[-0.72575,-0.525,0.05075,2.230,2.215,0])
elif(var_2 == "42"):
  movej(p[-0.82575,0.525,0.05075,2.230,2.215,0])
elif(var_2 == "43"):
  movej(p[-0.82575,0.350,0.05075,2.230,2.215,0])
elif(var_2 == "44"):
  movej(p[-0.82575,0.175,0.05075,2.230,2.215,0])
elif(var_2 == "45"):
  movej(p[-0.82575,0,0.05075,2.230,2.215,0])
elif(var_2 == "46"):
  movej(p[-0.82575,-0.175,0.05075,2.230,2.215,0])
elif(var_2 == "47"):
  movej(p[-0.82575,-0.350,0.05075,2.230,2.215,0])
elif(var_2 == "48"):
  movej(p[-0.82575,-0.525,0.05075,2.230,2.215,0])
elif(var_2 == "49"):
  movej(p[-0.92575,0.525,0.05075,2.230,2.215,0])
elif(var_2 == "50"):
  movej(p[-0.92575,0.350,0.05075,2.230,2.215,0])
elif(var_2 == "51"):
  movej(p[-0.92575,0.175,0.05075,2.230,2.215,0])
elif(var_2 == "52"):
  movej(p[-0.92575,0,0.05075,2.230,2.215,0])
elif(var_2 == "53"):
  movej(p[-0.92575,-0.175,0.05075,2.230,2.215,0])
elif(var_2 == "54"):
  movej(p[-0.92575,-0.350,0.05075,2.230,2.215,0])
elif(var_2 == "55"):
  movej(p[-0.92575,-0.525,0.05075,2.230,2.215,0])
elif(var_2 == "56"):
  movej(p[-1.02575,0.525,0.05075,2.230,2.215,0])
elif(var_2 == "57"):
  movej(p[-1.02575,0.350,0.05075,2.230,2.215,0])
elif(var_2 == "58"):
  movej(p[-1.02575,0.175,0.05075,2.230,2.215,0])
elif(var_2 == "59"):
  movej(p[-1.02575,0,0.05075,2.230,2.215,0])
elif(var_2 == "60"):
  movej(p[-1.02575,-0.175,0.05075,2.230,2.215,0])
elif(var_2 == "61"):
  movej(p[-1.02575,-0.350,0.05075,2.230,2.215,0])
elif(var_2 == "62"):
  movej(p[-1.02575,-0.525,0.05075,2.230,2.215,0])
end