Wonder741/Iorthotics/RTDE_receiver/robot_data.csv
timestamp target_q_0 target_q_1 target_q_2 target_q_3 target_q_4 target_q_5 target_qd_0 target_qd_1 target_qd_2 target_qd_3 target_qd_4 target_qd_5 target_qdd_0 target_qdd_1 target_qdd_2 target_qdd_3 target_qdd_4 target_qdd_5 target_current_0 target_current_1 target_current_2 target_current_3 target_current_4 target_current_5 target_moment_0 target_moment_1 target_moment_2 target_moment_3 target_moment_4 target_moment_5 actual_q_0 actual_q_1 actual_q_2 actual_q_3 actual_q_4 actual_q_5 actual_qd_0 actual_qd_1 actual_qd_2 actual_qd_3 actual_qd_4 actual_qd_5 actual_current_0 actual_current_1 actual_current_2 actual_current_3 actual_current_4 actual_current_5 joint_control_output_0 joint_control_output_1 joint_control_output_2 joint_control_output_3 joint_control_output_4 joint_control_output_5 actual_TCP_pose_0 actual_TCP_pose_1 actual_TCP_pose_2 actual_TCP_pose_3 actual_TCP_pose_4 actual_TCP_pose_5 actual_TCP_speed_0 actual_TCP_speed_1 actual_TCP_speed_2 actual_TCP_speed_3 actual_TCP_speed_4 actual_TCP_speed_5 actual_TCP_force_0 actual_TCP_force_1 actual_TCP_force_2 actual_TCP_force_3 actual_TCP_force_4 actual_TCP_force_5 target_TCP_pose_0 target_TCP_pose_1 target_TCP_pose_2 target_TCP_pose_3 target_TCP_pose_4 target_TCP_pose_5 target_TCP_speed_0 target_TCP_speed_1 target_TCP_speed_2 target_TCP_speed_3 target_TCP_speed_4 target_TCP_speed_5 actual_digital_input_bits joint_temperatures_0 joint_temperatures_1 joint_temperatures_2 joint_temperatures_3 joint_temperatures_4 joint_temperatures_5 actual_execution_time robot_mode joint_mode_0 joint_mode_1 joint_mode_2 joint_mode_3 joint_mode_4 joint_mode_5 safety_mode actual_tool_accelerometer_0 actual_tool_accelerometer_1 actual_tool_accelerometer_2 speed_scaling target_speed_fraction actual_momentum actual_main_voltage actual_robot_voltage actual_robot_current actual_joint_voltage_0 actual_joint_voltage_1 actual_joint_voltage_2 actual_joint_voltage_3 actual_joint_voltage_4 actual_joint_voltage_5 actual_digital_output_bits runtime_state
8812.456 0.10784156900279296 -1.0421716527030194 -1.8875006155463847 -1.8842755992692144 1.5659043897540974 0.3102633278612584 0.0 0.0 0.0 0.0 0.0 0.0 0.0 0.0 0.0 0.0 0.0 0.0 1.538990857485971e-16 0.2606167234481625 4.186244874333019 0.33357840339120787 -0.001692965232054418 0.0 2.148455551084145e-15 3.6410704384733705 48.04392591610705 3.8462803087436255 -0.01911658360603876 0.0 0.10784604400396347 -1.042185131703512 -1.887510124837057 -1.8842294851886194 1.565932273864746 0.31023114919662476 0.0 0.0 -0.0 0.0 0.0 0.0 0.4486084580421448 -0.0274658240377903 3.9814555644989014 0.3902893364429474 -0.01570129580795765 -0.1031799390912056 0.4302978813648224 -0.02288818545639515 3.9724884033203125 0.4082336723804474 -0.01345825381577015 -0.1031799390912056 0.3529996897261488 -0.11864804774308475 0.48224904324891005 1.9447095179499674 -2.3592099471859997 -0.08504089051430866 0.0 0.0 0.0 0.0 0.0 0.0 -4.852676883440119 -13.38534564283659 4.804287156663001 3.6785908148620368 -0.27419555388821515 -1.7209699297718715 0.35298355645612434 -0.11865933845239308 0.48225571578807436 1.9446462009715462 -2.3592169468044437 -0.08502117995136049 0.0 0.0 0.0 0.0 0.0 0.0 0 27.12999153137207 27.37999153137207 30.19999122619629 30.709991455078125 31.6099910736084 37.3699836730957 0.494557 7 253 253 253 253 253 253 1 0.17081978917121887 1.2227100133895874 -9.616854667663574 0.0 1.0 0.0 48.25174331665039 48.25174331665039 0.7519552707672119 48.137001037597656 47.939998626708984 47.986000061035156 47.97100067138672 48.01499938964844 48.07600021362305 0 1
8812.952 0.10784156900279296 -1.0421716527030194 -1.8875006155463847 -1.8842755992692144 1.5659043897540974 0.3102633278612584 0.0 0.0 0.0 0.0 0.0 0.0 0.0 0.0 0.0 0.0 0.0 0.0 1.538990857485971e-16 0.2606167234481625 4.186244874333019 0.33357840339120787 -0.001692965232054418 0.0 2.148455551084145e-15 3.6410704384733705 48.04392591610705 3.8462803087436255 -0.01911658360603876 0.0 0.10790558904409409 -1.0422089735614222 -1.8874743620501917 -1.8842414061175745 1.5659083127975464 0.31020718812942505 0.0 0.0 -0.0 0.0 0.0 0.0 0.4302978813648224 -0.004577637184411287 3.9814555644989014 0.4127197563648224 -0.008972168900072575 -0.1031799390912056 0.4302978813648224 -0.02288818545639515 3.9724884033203125 0.4059906303882599 -0.011215210892260075 -0.1031799390912056 0.3530186880562563 -0.1186324126830028 0.48226301107874403 1.9448015933609248 -2.359117317438209 -0.08500772620614666 0.0 0.0 0.0 0.0 0.0 0.0 -4.583968499516694 -12.738650966267508 5.390684367855383 3.3712631532818875 0.1333594490947705 -1.6943617235457726 0.35298355645612434 -0.11865933845239308 0.48225571578807436 1.9446462009715462 -2.3592169468044437 -0.08502117995136049 0.0 0.0 0.0 0.0 0.0 0.0 0 27.12999153137207 27.37999153137207 30.19999122619629 30.709991455078125 31.6099910736084 37.3699836730957 0.482796 7 253 253 253 253 253 253 1 0.16482611000537872 1.2436878681182861 -9.616854667663574 0.0 1.0 0.0 48.25174331665039 48.25174331665039 0.7877604365348816 48.152000427246094 47.95500183105469 48.01499938964844 47.986000061035156 48.029998779296875 48.07600021362305 0 1
8813.448 0.10784156900279296 -1.0421716527030194 -1.8875006155463847 -1.8842755992692144 1.5659043897540974 0.3102633278612584 0.0 0.0 0.0 0.0 0.0 0.0 0.0 0.0 0.0 0.0 0.0 0.0 1.538990857485971e-16 0.2606167234481625 4.186244874333019 0.33357840339120787 -0.001692965232054418 0.0 2.148455551084145e-15 3.6410704384733705 48.04392591610705 3.8462803087436255 -0.01911658360603876 0.0 0.10785802453756332 -1.042173210774557 -1.8874858061419886 -1.8842414061175745 1.5659083127975464 0.31020718812942505 0.0 0.0 -0.0 0.0 0.0 0.0 0.4302978813648224 -0.01373291201889515 3.9680047035217285 0.4239349663257599 -0.011215210892260075 -0.1031799390912056 0.4302978813648224 -0.02288818545639515 3.9724884033203125 0.4082336723804474 -0.01345825381577015 -0.1031799390912056 0.35299845915403977 -0.11865083885874218 0.4822677234785011 1.9447594548551272 -2.359180635041599 -0.08499073928111907 0.0 0.0 0.0 0.0 0.0 0.0 -4.84022151929002 -12.65496355032922 5.907681397167785 3.353510571371462 0.2503034426140015 -1.6936718405819893 0.35298355645612434 -0.11865933845239308 0.48225571578807436 1.9446462009715462 -2.3592169468044437 -0.08502117995136049 0.0 0.0 0.0 0.0 0.0 0.0 0 27.12999153137207 27.37999153137207 30.19999122619629 30.709991455078125 31.6099910736084 37.3699836730957 0.479377 7 253 253 253 253 253 253 1 0.18280713260173798 1.2496815919876099 -9.586885452270508 0.0 1.0 0.0 48.25174331665039 48.25174331665039 0.7161448001861572 48.16699981689453 47.97100067138672 48.029998779296875 47.986000061035156 47.986000061035156 48.090999603271484 0 1
8813.944 0.10784156900279296 -1.0421716527030194 -1.8875006155463847 -1.8842755992692144 1.5659043897540974 0.3102633278612584 0.0 0.0 0.0 0.0 0.0 0.0 0.0 0.0 0.0 0.0 0.0 0.0 1.538990857485971e-16 0.2606167234481625 4.186244874333019 0.33357840339120787 -0.001692965232054418 0.0 2.148455551084145e-15 3.6410704384733705 48.04392591610705 3.8462803087436255 -0.01911658360603876 0.0 0.10785802453756332 -1.0422089735614222 -1.8874858061419886 -1.8842533270465296 1.5659083127975464 0.31020718812942505 0.0 0.0 -0.0 0.0 0.0 0.0 0.4074096977710724 0.004577637184411287 3.9724884033203125 0.3970184624195099 -0.01794433780014515 -0.1143951565027237 0.4302978813648224 -0.02288818545639515 3.9724884033203125 0.4104767143726349 -0.01345825381577015 -0.1031799390912056 0.35300758538247645 -0.11864988663100005 0.4822545874622583 1.9447334391273352 -2.3591489457254022 -0.08502956377610764 0.0 0.0 0.0 0.0 0.0 0.0 -4.202760646437104 -11.50067295618015 5.339622614054912 3.1436901054133415 0.05265708316871065 -1.8184162749790196 0.35298355645612434 -0.11865933845239308 0.48225571578807436 1.9446462009715462 -2.3592169468044437 -0.08502117995136049 0.0 0.0 0.0 0.0 0.0 0.0 0 27.12999153137207 27.37999153137207 30.19999122619629 30.709991455078125 31.6099910736084 37.3699836730957 0.435192 7 253 253 253 253 253 253 1 0.15283875167369843 1.2436878681182861 -9.625844955444336 0.0 1.0 0.0 48.25174331665039 48.25174331665039 0.7161448001861572 48.137001037597656 47.939998626708984 48.029998779296875 47.97100067138672 48.029998779296875 48.06100082397461 0 1
8814.44 0.10784156900279296 -1.0421716527030194 -1.8875006155463847 -1.8842755992692144 1.5659043897540974 0.3102633278612584 0.0 0.0 0.0 0.0 0.0 0.0 0.0 0.0 0.0 0.0 0.0 0.0 1.538990857485971e-16 0.2606167234481625 4.186244874333019 0.33357840339120787 -0.001692965232054418 0.0 2.148455551084145e-15 3.6410704384733705 48.04392591610705 3.8462803087436255 -0.01911658360603876 0.0 0.10785802453756332 -1.0421488920794886 -1.8874858061419886 -1.884277645741598 1.565932273864746 0.3102431297302246 0.0 0.0 -0.0 0.0 0.0 0.0 0.4669190049171448 -0.0549316480755806 3.9680047035217285 0.4082336723804474 -0.01570129580795765 -0.1166381984949112 0.4302978813648224 -0.02288818545639515 3.9724884033203125 0.4104767143726349 -0.01345825381577015 -0.1031799390912056 0.352978535025605 -0.11864627308000712 0.4822728139073883 1.9447163153200346 -2.359217101335165 -0.08502876392674703 0.0 0.0 0.0 0.0 0.0 0.0 -5.659434612478945 -13.434784285635619 5.361807928763964 3.6424121146353023 -0.2332422317550839 -1.8946942696984697 0.35298355645612434 -0.11865933845239308 0.48225571578807436 1.9446462009715462 -2.3592169468044437 -0.08502117995136049 0.0 0.0 0.0 0.0 0.0 0.0 0 27.12999153137207 27.37999153137207 30.19999122619629 30.709991455078125 31.6099910736084 37.3699836730957 0.42573700000000003 7 253 253 253 253 253 253 1 0.1798103004693985 1.240691065788269 -9.619851112365723 0.0 1.0 0.0 48.25174331665039 48.25174331665039 0.6803395748138428 48.137001037597656 47.95500183105469 47.986000061035156 48.0 48.01499938964844 48.06100082397461 0 1
8814.936 0.10784156900279296 -1.0421716527030194 -1.8875006155463847 -1.8842755992692144 1.5659043897540974 0.3102633278612584 0.0 0.0 0.0 0.0 0.0 0.0 0.0 0.0 0.0 0.0 0.0 0.0 1.538990857485971e-16 0.2606167234481625 4.186244874333019 0.33357840339120787 -0.001692965232054418 0.0 2.148455551084145e-15 3.6410704384733705 48.04392591610705 3.8462803087436255 -0.01911658360603876 0.0 0.10786963999271393 -1.0421612898456019 -1.8874858061419886 -1.8842414061175745 1.5658962726593018 0.3102191686630249 0.0 0.0 -0.0 0.0 0.0 0.0 0.4211426079273224 -0.0366210974752903 3.9635210037231445 0.4059906303882599 -0.01570129580795765 -0.1166381984949112 0.4302978813648224 -0.02288818545639515 3.9724884033203125 0.4082336723804474 -0.01345825381577015 -0.1031799390912056 0.3529960390569684 -0.1186505780266294 0.4822717494812911 1.9447620181476855 -2.35918311471642 -0.08496381936767812 0.0 0.0 0.0 0.0 0.0 0.0 -5.296509748220399 -11.664506181122524 5.520521830472247 3.1448084015265105 -0.14082265425572638 -1.8458913240732602 0.35298355645612434 -0.11865933845239308 0.48225571578807436 1.9446462009715462 -2.3592169468044437 -0.08502117995136049 0.0 0.0 0.0 0.0 0.0 0.0 0 27.12999153137207 27.37999153137207 30.19999122619629 30.709991455078125 31.6099910736084 37.3699836730957 0.430056 7 253 253 253 253 253 253 1 0.1558355987071991 1.2676626443862915 -9.610860824584961 0.0 1.0 0.0 48.25174331665039 48.25174331665039 0.7519552707672119 48.12200164794922 47.95500183105469 47.986000061035156 47.986000061035156 48.01499938964844 48.06100082397461 0 1
8815.431999999999 0.10784156900279296 -1.0421716527030194 -1.8875006155463847 -1.8842755992692144 1.5659043897540974 0.3102633278612584 0.0 0.0 0.0 0.0 0.0 0.0 0.0 0.0 0.0 0.0 0.0 0.0 1.538990857485971e-16 0.2606167234481625 4.186244874333019 0.33357840339120787 -0.001692965232054418 0.0 2.148455551084145e-15 3.6410704384733705 48.04392591610705 3.8462803087436255 -0.01911658360603876 0.0 0.10785802453756332 -1.042173210774557 -1.8874982039081019 -1.8842414061175745 1.5659202337265015 0.31020718812942505 0.0 0.0 -0.0 0.0 0.0 0.0 0.4623413681983948 -0.02288818545639515 3.9567956924438477 0.4284210503101349 -0.006729126907885075 -0.0986938551068306 0.4302978813648224 -0.02288818545639515 3.9724884033203125 0.4104767143726349 -0.01345825381577015 -0.1031799390912056 0.3529959095787216 -0.11864778298915603 0.4822597277051204 1.9447556584525727 -2.3591776876871617 -0.08501622066878067 0.0 0.0 0.0 0.0 0.0 0.0 -4.864439286022921 -14.132269301166923 6.237523175871681 3.709265502169557 0.3218900389044545 -1.67091684093415 0.35298355645612434 -0.11865933845239308 0.48225571578807436 1.9446462009715462 -2.3592169468044437 -0.08502117995136049 0.0 0.0 0.0 0.0 0.0 0.0 0 27.12999153137207 27.37999153137207 30.19999122619629 30.709991455078125 31.6099910736084 37.3699836730957 0.393385 7 253 253 253 253 253 253 1 0.1798103004693985 1.2317005395889282 -9.67379379272461 0.0 1.0 0.0 48.25174331665039 48.25174331665039 0.6445291042327881 48.16699981689453 47.95500183105469 48.0 47.97100067138672 48.01499938964844 48.07600021362305 0 1
8815.928 0.10784156900279296 -1.0421716527030194 -1.8875006155463847 -1.8842755992692144 1.5659043897540974 0.3102633278612584 0.0 0.0 0.0 0.0 0.0 0.0 0.0 0.0 0.0 0.0 0.0 0.0 1.538990857485971e-16 0.2606167234481625 4.186244874333019 0.33357840339120787 -0.001692965232054418 0.0 2.148455551084145e-15 3.6410704384733705 48.04392591610705 3.8462803087436255 -0.01911658360603876 0.0 0.10788162052631378 -1.0422089735614222 -1.8874619642840784 -1.8842294851886194 1.5659202337265015 0.3101472556591034 0.0 0.0 -0.0 0.0 0.0 0.0 0.4394531846046448 0.004577637184411287 3.9859392642974854 0.3992615044116974 -0.01345825381577015 -0.1143951565027237 0.4302978813648224 -0.02288818545639515 3.9724884033203125 0.4082336723804474 -0.01345825381577015 -0.1031799390912056 0.35302107190027504 -0.11863681630629876 0.4822720575079111 1.944861870026707 -2.359105475437767 -0.08500906088485399 0.0 0.0 0.0 0.0 0.0 0.0 -4.215065914544661 -12.827915840801253 5.055584763273429 3.461315498173933 0.04589245779561707 -1.849865754820091 0.35298355645612434 -0.11865933845239308 0.48225571578807436 1.9446462009715462 -2.3592169468044437 -0.08502117995136049 0.0 0.0 0.0 0.0 0.0 0.0 0 27.12999153137207 27.37999153137207 30.19999122619629 30.709991455078125 31.6099910736084 37.3699836730957 0.438672 7 253 253 253 253 253 253 1 0.17081978917121887 1.2317005395889282 -9.622847557067871 0.0 1.0 0.0 48.25174331665039 48.3125114440918 0.6803395748138428 48.137001037597656 47.939998626708984 47.986000061035156 47.95500183105469 48.029998779296875 48.06100082397461 0 1
8816.423999999999 0.10784156900279296 -1.0421716527030194 -1.8875006155463847 -1.8842755992692144 1.5659043897540974 0.3102633278612584 0.0 0.0 0.0 0.0 0.0 0.0 0.0 0.0 0.0 0.0 0.0 0.0 1.538990857485971e-16 0.2606167234481625 4.186244874333019 0.33357840339120787 -0.001692965232054418 0.0 2.148455551084145e-15 3.6410704384733705 48.04392591610705 3.8462803087436255 -0.01911658360603876 0.0 0.10788162052631378 -1.042197052632467 -1.8874858061419886 -1.8842652479754847 1.5659202337265015 0.3102191686630249 0.0 0.0 -0.0 0.0 0.0 0.0 0.4211426079273224 -0.0274658240377903 3.9724884033203125 0.4127197563648224 -0.011215210892260075 -0.1009368970990181 0.4302978813648224 -0.02288818545639515 3.9724884033203125 0.4082336723804474 -0.01345825381577015 -0.1031799390912056 0.3530023148174366 -0.11863906897693284 0.48225759129630363 1.944749695798921 -2.3591420436007984 -0.08504258770044648 0.0 0.0 0.0 0.0 0.0 0.0 -5.1561774345279625 -12.258172324391364 5.484480903632904 3.266648748576367 -0.022596685798002364 -1.6529624504616194 0.35298355645612434 -0.11865933845239308 0.48225571578807436 1.9446462009715462 -2.3592169468044437 -0.08502117995136049 0.0 0.0 0.0 0.0 0.0 0.0 0 27.12999153137207 27.37999153137207 30.19999122619629 30.709991455078125 31.6099910736084 37.3699836730957 0.467101 7 253 253 253 253 253 253 1 0.14984191954135895 1.2496815919876099 -9.595876693725586 0.0 1.0 0.0 48.25174331665039 48.25174331665039 0.7519552707672119 48.16699981689453 47.939998626708984 48.0 47.97100067138672 48.029998779296875 48.06100082397461 0 1
8816.92 0.10784156900279296 -1.0421716527030194 -1.8875006155463847 -1.8842755992692144 1.5659043897540974 0.3102633278612584 0.0 0.0 0.0 0.0 0.0 0.0 0.0 0.0 0.0 0.0 0.0 0.0 1.538990857485971e-16 0.2606167234481625 4.186244874333019 0.33357840339120787 -0.001692965232054418 0.0 2.148455551084145e-15 3.6410704384733705 48.04392591610705 3.8462803087436255 -0.01911658360603876 0.0 0.10788162052631378 -1.0422089735614222 -1.8874858061419886 -1.8842414061175745 1.5659202337265015 0.3101951777935028 0.0 0.0 -0.0 0.0 0.0 0.0 0.3982544243335724 -0.0274658240377903 3.9747300148010254 0.3970184624195099 -0.02018737979233265 -0.1099090725183487 0.4302978813648224 -0.02288818545639515 3.9724884033203125 0.4104767143726349 -0.01345825381577015 -0.1031799390912056 0.3530134602310522 -0.11863779541878293 0.48225563095708296 1.944784817108964 -2.3591273502007497 -0.08503475040329464 0.0 0.0 0.0 0.0 0.0 0.0 -5.130281120627593 -10.988423523952976 5.100069302328891 3.037188296895174 -0.23602553730969758 -1.7458904157363537 0.35298355645612434 -0.11865933845239308 0.48225571578807436 1.9446462009715462 -2.3592169468044437 -0.08502117995136049 0.0 0.0 0.0 0.0 0.0 0.0 0 27.12999153137207 27.37999153137207 30.19999122619629 30.709991455078125 31.6099910736084 37.3699836730957 0.460764 7 253 253 253 253 253 253 1 0.14684507250785828 1.252678394317627 -9.61385726928711 0.0 1.0 0.0 48.25174331665039 48.25174331665039 0.6087239384651184 48.152000427246094 47.95500183105469 48.029998779296875 47.97100067138672 48.029998779296875 48.090999603271484 0 1
8817.416 0.10784156900279296 -1.0421716527030194 -1.8875006155463847 -1.8842755992692144 1.5659043897540974 0.3102633278612584 0.0 0.0 0.0 0.0 0.0 0.0 0.0 0.0 0.0 0.0 0.0 0.0 1.538990857485971e-16 0.2606167234481625 4.186244874333019 0.33357840339120787 -0.001692965232054418 0.0 2.148455551084145e-15 3.6410704384733705 48.04392591610705 3.8462803087436255 -0.01911658360603876 0.0 0.10786963999271393 -1.0421612898456019 -1.8874743620501917 -1.8842175642596644 1.565932273864746 0.31023114919662476 0.0 0.0 -0.0 0.0 0.0 0.0 0.4165649712085724 -0.0503540076315403 3.9792137145996094 0.4082336723804474 -0.01794433780014515 -0.0919647291302681 0.4302978813648224 -0.02288818545639515 3.9724884033203125 0.4082336723804474 -0.01345825381577015 -0.1031799390912056 0.3530037703768223 -0.11863936273815658 0.4822812314891649 1.9447763552554778 -2.3592339432319385 -0.08498150258097753 0.0 0.0 0.0 0.0 0.0 0.0 -5.786995435868804 -12.162784435010709 5.091985784589155 3.347911467866089 -0.2880114293413646 -1.5401249965408859 0.35298355645612434 -0.11865933845239308 0.48225571578807436 1.9446462009715462 -2.3592169468044437 -0.08502117995136049 0.0 0.0 0.0 0.0 0.0 0.0 0 27.12999153137207 27.37999153137207 30.19999122619629 30.709991455078125 31.6099910736084 37.3699836730957 0.470785 7 253 253 253 253 253 253 1 0.15883243083953857 1.2436878681182861 -9.649819374084473 0.0 1.0 0.0 48.25174331665039 48.25174331665039 0.6445291042327881 48.137001037597656 47.939998626708984 48.029998779296875 47.97100067138672 48.04600143432617 48.06100082397461 0 1
8817.912 0.10784156900279296 -1.0421716527030194 -1.8875006155463847 -1.8842755992692144 1.5659043897540974 0.3102633278612584 0.0 0.0 0.0 0.0 0.0 0.0 0.0 0.0 0.0 0.0 0.0 0.0 1.538990857485971e-16 0.2606167234481625 4.186244874333019 0.33357840339120787 -0.001692965232054418 0.0 2.148455551084145e-15 3.6410704384733705 48.04392591610705 3.8462803087436255 -0.01911658360603876 0.0 0.10785802453756332 -1.042173210774557 -1.8874858061419886 -1.8842414061175745 1.5659202337265015 0.31018319725990295 0.0 0.0 -0.0 0.0 0.0 0.0 0.4028320610523224 -0.01373291201889515 3.9859392642974854 0.4104767143726349 -0.01570129580795765 -0.0942077711224556 0.4302978813648224 -0.02288818545639515 3.9724884033203125 0.4104767143726349 -0.01345825381577015 -0.1031799390912056 0.35299806163063424 -0.11864748698312924 0.48226773054022676 1.9447912509711285 -2.359163026962225 -0.08500777652398676 0.0 0.0 0.0 0.0 0.0 0.0 -4.950258200683913 -11.78380632764699 5.172710836233358 3.204613263926471 -0.010276782583874017 -1.558251116376973 0.35298355645612434 -0.11865933845239308 0.48225571578807436 1.9446462009715462 -2.3592169468044437 -0.08502117995136049 0.0 0.0 0.0 0.0 0.0 0.0 0 27.12999153137207 27.37999153137207 30.19999122619629 30.709991455078125 31.6099910736084 37.3699836730957 0.492408 7 253 253 253 253 253 253 1 0.14684507250785828 1.2646657228469849 -9.64382553100586 0.0 1.0 0.0 48.25174331665039 48.25174331665039 0.859376072883606 48.16699981689453 47.90999984741211 47.97100067138672 47.986000061035156 48.01499938964844 48.07600021362305 0 1
8818.408 0.10784156900279296 -1.0421716527030194 -1.8875006155463847 -1.8842755992692144 1.5659043897540974 0.3102633278612584 0.0 0.0 0.0 0.0 0.0 0.0 0.0 0.0 0.0 0.0 0.0 0.0 1.538990857485971e-16 0.2606167234481625 4.186244874333019 0.33357840339120787 -0.001692965232054418 0.0 2.148455551084145e-15 3.6410704384733705 48.04392591610705 3.8462803087436255 -0.01911658360603876 0.0 0.10790558904409409 -1.042173210774557 -1.8874743620501917 -1.8842294851886194 1.565932273864746 0.31018319725990295 0.0 0.0 -0.0 0.0 0.0 0.0 0.4714966416358948 -0.0274658240377903 3.9926645755767822 0.4194488823413849 -0.02018737979233265 -0.1031799390912056 0.4302978813648224 -0.02288818545639515 3.9724884033203125 0.4104767143726349 -0.01345825381577015 -0.1031799390912056 0.3530087622110338 -0.11862662814782922 0.48227616160823417 1.9448625369315962 -2.359136687829365 -0.08500159176532865 0.0 0.0 0.0 0.0 0.0 0.0 -5.224457722383287 -14.200012030383274 5.128250689559695 3.9168572196492564 0.025471235347978752 -1.7475176316579422 0.35298355645612434 -0.11865933845239308 0.48225571578807436 1.9446462009715462 -2.3592169468044437 -0.08502117995136049 0.0 0.0 0.0 0.0 0.0 0.0 0 27.12999153137207 27.37999153137207 30.19999122619629 30.709991455078125 31.6099910736084 37.3699836730957 0.42846100000000004 7 253 253 253 253 253 253 1 0.14984191954135895 1.225706934928894 -9.61385726928711 0.0 1.0 0.0 48.25174331665039 48.25174331665039 0.6445291042327881 48.152000427246094 47.95500183105469 48.0 47.986000061035156 48.029998779296875 48.07600021362305 0 1
8818.904 0.10784156900279296 -1.0421716527030194 -1.8875006155463847 -1.8842755992692144 1.5659043897540974 0.3102633278612584 0.0 0.0 0.0 0.0 0.0 0.0 0.0 0.0 0.0 0.0 0.0 0.0 1.538990857485971e-16 0.2606167234481625 4.186244874333019 0.33357840339120787 -0.001692965232054418 0.0 2.148455551084145e-15 3.6410704384733705 48.04392591610705 3.8462803087436255 -0.01911658360603876 0.0 0.10785802453756332 -1.042197052632467 -1.8874743620501917 -1.8842533270465296 1.5659443140029907 0.3102191686630249 0.0 0.0 -0.0 0.0 0.0 0.0 0.3936767876148224 -0.0274658240377903 3.9814555644989014 0.4127197563648224 -0.004486084450036287 -0.1009368970990181 0.4302978813648224 -0.02288818545639515 3.9724884033203125 0.4104767143726349 -0.01345825381577015 -0.1031799390912056 0.35300417183393185 -0.11863994467802466 0.48226602928504214 1.9447413498259627 -2.3591916214096016 -0.08505662505731829 0.0 0.0 0.0 0.0 0.0 0.0 -5.370697949240972 -11.087164708702257 5.252527596298631 2.8553359971654784 -0.11495095140827669 -1.6109518292241929 0.35298355645612434 -0.11865933845239308 0.48225571578807436 1.9446462009715462 -2.3592169468044437 -0.08502117995136049 0.0 0.0 0.0 0.0 0.0 0.0 0 27.12999153137207 27.37999153137207 30.19999122619629 30.709991455078125 31.6099910736084 37.3699836730957 0.378264 7 253 253 253 253 253 253 1 0.1438482403755188 1.2586721181869507 -9.565908432006836 0.0 1.0 0.0 48.25174331665039 48.25174331665039 0.7161448001861572 48.137001037597656 47.92499923706055 48.01499938964844 47.97100067138672 48.029998779296875 48.06100082397461 0 1
8819.4 0.10784156900279296 -1.0421716527030194 -1.8875006155463847 -1.8842755992692144 1.5659043897540974 0.3102633278612584 0.0 0.0 0.0 0.0 0.0 0.0 0.0 0.0 0.0 0.0 0.0 0.0 1.538990857485971e-16 0.2606167234481625 4.186244874333019 0.33357840339120787 -0.001692965232054418 0.0 2.148455551084145e-15 3.6410704384733705 48.04392591610705 3.8462803087436255 -0.01911658360603876 0.0 0.10783405601978302 -1.0421612898456019 -1.8874982039081019 -1.8842414061175745 1.565932273864746 0.31020718812942505 0.0 0.0 -0.0 0.0 0.0 0.0 0.3982544243335724 0.009155274368822575 3.9747300148010254 0.4194488823413849 -0.01794433780014515 -0.1166381984949112 0.4302978813648224 -0.02288818545639515 3.9724884033203125 0.4104767143726349 -0.01345825381577015 -0.1031799390912056 0.3529884645323497 -0.11865331220406554 0.48226376794546943 1.9447374278813863 -2.359214655729324 -0.08502365845771716 0.0 0.0 0.0 0.0 0.0 0.0 -4.430551064199387 -10.9813390912873 5.768620557795579 2.9559493689536174 0.3110855507078961 -1.8316114854420702 0.35298355645612434 -0.11865933845239308 0.48225571578807436 1.9446462009715462 -2.3592169468044437 -0.08502117995136049 0.0 0.0 0.0 0.0 0.0 0.0 0 27.12999153137207 27.37999153137207 30.19999122619629 30.709991455078125 31.6099910736084 37.3699836730957 0.428905 7 253 253 253 253 253 253 1 0.13785456120967865 1.2676626443862915 -9.64382553100586 0.0 1.0 0.0 48.25174331665039 48.25174331665039 0.6803395748138428 48.137001037597656 47.95500183105469 48.0 47.95500183105469 48.01499938964844 48.06100082397461 0 1
8819.895999999999 0.10784156900279296 -1.0421716527030194 -1.8875006155463847 -1.8842755992692144 1.5659043897540974 0.3102633278612584 0.0 0.0 0.0 0.0 0.0 0.0 0.0 0.0 0.0 0.0 0.0 0.0 1.538990857485971e-16 0.2606167234481625 4.186244874333019 0.33357840339120787 -0.001692965232054418 0.0 2.148455551084145e-15 3.6410704384733705 48.04392591610705 3.8462803087436255 -0.01911658360603876 0.0 0.10783405601978302 -1.042197052632467 -1.8874858061419886 -1.8842056433307093 1.565932273864746 0.31020718812942505 0.0 0.0 -0.0 0.0 0.0 0.0 0.4394531846046448 -0.0366210974752903 3.9836974143981934 0.4037475883960724 -0.011215210892260075 -0.1054229810833931 0.4302978813648224 -0.02288818545639515 3.9724884033203125 0.4104767143726349 -0.01345825381577015 -0.1031799390912056 0.35301363441103145 -0.11865042591083931 0.4822627810467272 1.94474418867752 -2.359223237459249 -0.08501423467867501 0.0 0.0 0.0 0.0 0.0 0.0 -5.342210242090573 -12.799505084222996 4.971331519854317 3.432855116947489 -0.23707854629591701 -1.726197026835727 0.35298355645612434 -0.11865933845239308 0.48225571578807436 1.9446462009715462 -2.3592169468044437 -0.08502117995136049 0.0 0.0 0.0 0.0 0.0 0.0 0 27.12999153137207 27.37999153137207 30.19999122619629 30.709991455078125 31.6099910736084 37.3699836730957 0.381516 7 253 253 253 253 253 253 1 0.1438482403755188 1.2676626443862915 -9.64382553100586 0.0 1.0 0.0 48.25174331665039 48.25174331665039 0.7519552707672119 48.152000427246094 47.95500183105469 47.986000061035156 47.97100067138672 48.01499938964844 48.06100082397461 0 1
8820.392 0.10784156900279296 -1.0421716527030194 -1.8875006155463847 -1.8842755992692144 1.5659043897540974 0.3102633278612584 0.0 0.0 0.0 0.0 0.0 0.0 0.0 0.0 0.0 0.0 0.0 0.0 1.538990857485971e-16 0.2606167234481625 4.186244874333019 0.33357840339120787 -0.001692965232054418 0.0 2.148455551084145e-15 3.6410704384733705 48.04392591610705 3.8462803087436255 -0.01911658360603876 0.0 0.10786963999271393 -1.042197052632467 -1.8874858061419886 -1.8842414061175745 1.5659083127975464 0.31020718812942505 0.0 0.0 -0.0 0.0 0.0 0.0 0.4302978813648224 0.004577637184411287 3.9523119926452637 0.4149627983570099 -0.01345825381577015 -0.0919647291302681 0.4302978813648224 -0.02288818545639515 3.9724884033203125 0.4082336723804474 -0.01345825381577015 -0.1031799390912056 0.35300823676817517 -0.11864583057975535 0.48225965713926694 1.944759933595359 -2.3591533285807587 -0.08500949906913195 0.0 0.0 0.0 0.0 0.0 0.0 -4.025254762099052 -13.277494873579435 6.21975412234386 3.5809928297201634 0.4047773328116582 -1.57050606945953 0.35298355645612434 -0.11865933845239308 0.48225571578807436 1.9446462009715462 -2.3592169468044437 -0.08502117995136049 0.0 0.0 0.0 0.0 0.0 0.0 0 27.12999153137207 27.37999153137207 30.19999122619629 30.709991455078125 31.6099910736084 37.3699836730957 0.426361 7 253 253 253 253 253 253 1 0.1678229421377182 1.237694263458252 -9.640829086303711 0.0 1.0 0.0 48.25174331665039 48.25174331665039 0.6445291042327881 48.137001037597656 47.95500183105469 48.029998779296875 47.97100067138672 48.01499938964844 48.04600143432617 0 1
8820.887999999999 0.10784156900279296 -1.0421716527030194 -1.8875006155463847 -1.8842755992692144 1.5659043897540974 0.3102633278612584 0.0 0.0 0.0 0.0 0.0 0.0 0.0 0.0 0.0 0.0 0.0 0.0 1.538990857485971e-16 0.2606167234481625 4.186244874333019 0.33357840339120787 -0.001692965232054418 0.0 2.148455551084145e-15 3.6410704384733705 48.04392591610705 3.8462803087436255 -0.01911658360603876 0.0 0.10785802453756332 -1.042185131703512 -1.8874982039081019 -1.8842533270465296 1.5659202337265015 0.31020718812942505 0.0 0.0 -0.0 0.0 0.0 0.0 0.4211426079273224 -0.0411987341940403 3.9724884033203125 0.4216919243335724 -0.02018737979233265 -0.1143951565027237 0.4302978813648224 -0.02288818545639515 3.9724884033203125 0.4082336723804474 -0.01345825381577015 -0.1031799390912056 0.35299663635458534 -0.11864773869562405 0.48225465811504886 1.9447426729132882 -2.3591617771396862 -0.08503553932434435 0.0 0.0 0.0 0.0 0.0 0.0 -5.702326527417314 -11.603510111768108 5.592684241106056 3.1624739628387166 -0.04519314837110511 -1.819281559572372 0.35298355645612434 -0.11865933845239308 0.48225571578807436 1.9446462009715462 -2.3592169468044437 -0.08502117995136049 0.0 0.0 0.0 0.0 0.0 0.0 0 27.12999153137207 27.37999153137207 30.19999122619629 30.709991455078125 31.6099910736084 37.3699836730957 0.46339199999999997 7 253 253 253 253 253 253 1 0.16182926297187805 1.2496815919876099 -9.619851112365723 0.0 1.0 0.0 48.25174331665039 48.25174331665039 0.7161448001861572 48.152000427246094 47.95500183105469 48.0 47.97100067138672 48.029998779296875 48.06100082397461 0 1
8821.384 0.10784156900279296 -1.0421716527030194 -1.8875006155463847 -1.8842755992692144 1.5659043897540974 0.3102633278612584 0.0 0.0 0.0 0.0 0.0 0.0 0.0 0.0 0.0 0.0 0.0 0.0 1.538990857485971e-16 0.2606167234481625 4.186244874333019 0.33357840339120787 -0.001692965232054418 0.0 2.148455551084145e-15 3.6410704384733705 48.04392591610705 3.8462803087436255 -0.01911658360603876 0.0 0.10784604400396347 -1.042197052632467 -1.8874858061419886 -1.8842414061175745 1.5659562349319458 0.31020718812942505 0.0 0.0 -0.0 0.0 0.0 0.0 0.4119873344898224 0.004577637184411287 3.9747300148010254 0.4149627983570099 -0.01570129580795765 -0.1099090725183487 0.4302978813648224 -0.02288818545639515 3.9724884033203125 0.4082336723804474 -0.01345825381577015 -0.1031799390912056 0.3530038392469036 -0.11864068556351787 0.48225968577372313 1.9447449504921581 -2.359197806218398 -0.08507331133413189 0.0 0.0 0.0 0.0 0.0 0.0 -4.408735336406163 -11.788433423162079 5.653445626891463 3.172229443950268 0.24649101081975192 -1.7641310355434423 0.35298355645612434 -0.11865933845239308 0.48225571578807436 1.9446462009715462 -2.3592169468044437 -0.08502117995136049 0.0 0.0 0.0 0.0 0.0 0.0 0 27.12999153137207 27.37999153137207 30.19999122619629 30.709991455078125 31.6099910736084 37.3699836730957 0.46202499999999996 7 253 253 253 253 253 253 1 0.14684507250785828 1.252678394317627 -9.670797348022461 0.0 1.0 0.0 48.25174331665039 48.25174331665039 0.6803395748138428 48.152000427246094 47.97100067138672 47.97100067138672 47.97100067138672 48.029998779296875 48.07600021362305 0 1
8821.88 0.10784156900279296 -1.0421716527030194 -1.8875006155463847 -1.8842755992692144 1.5659043897540974 0.3102633278612584 0.0 0.0 0.0 0.0 0.0 0.0 0.0 0.0 0.0 0.0 0.0 0.0 1.538990857485971e-16 0.2606167234481625 4.186244874333019 0.33357840339120787 -0.001692965232054418 0.0 2.148455551084145e-15 3.6410704384733705 48.04392591610705 3.8462803087436255 -0.01911658360603876 0.0 0.10789360851049423 -1.042185131703512 -1.8874982039081019 -1.8842533270465296 1.5659202337265015 0.3102191686630249 0.0 0.0 -0.0 0.0 0.0 0.0 0.4486084580421448 -0.02288818545639515 3.9612791538238525 0.4216919243335724 -0.01570129580795765 -0.0919647291302681 0.4302978813648224 -0.02288818545639515 3.9724884033203125 0.4104767143726349 -0.01345825381577015 -0.1031799390912056 0.3530008580890207 -0.11863517759775681 0.48225465811504886 1.9447697275237854 -2.3591378704735524 -0.08503248389855511 0.0 0.0 0.0 0.0 0.0 0.0 -4.868958243561763 -13.766172371367801 5.982549917970483 3.74016613826801 0.22632622858941367 -1.5846530414834143 0.35298355645612434 -0.11865933845239308 0.48225571578807436 1.9446462009715462 -2.3592169468044437 -0.08502117995136049 0.0 0.0 0.0 0.0 0.0 0.0 0 27.12999153137207 27.37999153137207 30.19999122619629 30.709991455078125 31.6099910736084 37.3699836730957 0.496032 7 253 253 253 253 253 253 1 0.1438482403755188 1.2466847896575928 -9.61385726928711 0.0 1.0 0.0 48.25174331665039 48.25174331665039 0.7877604365348816 48.137001037597656 47.95500183105469 48.0 47.95500183105469 48.01499938964844 48.07600021362305 0 1
8822.376 0.10784156900279296 -1.0421716527030194 -1.8875006155463847 -1.8842755992692144 1.5659043897540974 0.3102633278612584 0.0 0.0 0.0 0.0 0.0 0.0 0.0 0.0 0.0 0.0 0.0 0.0 1.538990857485971e-16 0.2606167234481625 4.186244874333019 0.33357840339120787 -0.001692965232054418 0.0 2.148455551084145e-15 3.6410704384733705 48.04392591610705 3.8462803087436255 -0.01911658360603876 0.0 0.10786963999271393 -1.042197052632467 -1.8874619642840784 -1.8841937224017542 1.5659083127975464 0.31020718812942505 0.0 0.0 -0.0 0.0 0.0 0.0 0.4394531846046448 -0.004577637184411287 3.9836974143981934 0.4037475883960724 -0.01570129580795765 -0.0986938551068306 0.4302978813648224 -0.02288818545639515 3.9724884033203125 0.4104767143726349 -0.01345825381577015 -0.1031799390912056 0.3530262667118876 -0.11864362248185276 0.482279193827433 1.944799075745171 -2.3592011556809838 -0.08495203393404421 0.0 0.0 0.0 0.0 0.0 0.0 -4.439881444169352 -13.288950277644414 5.151381833314435 3.632662049319164 0.05010850557730964 -1.6603402328461245 0.35298355645612434 -0.11865933845239308 0.48225571578807436 1.9446462009715462 -2.3592169468044437 -0.08502117995136049 0.0 0.0 0.0 0.0 0.0 0.0 0 27.12999153137207 27.37999153137207 30.19999122619629 30.709991455078125 31.6099910736084 37.3699836730957 0.42423700000000003 7 253 253 253 253 253 253 1 0.1917976588010788 1.2287037372589111 -9.64382553100586 0.0 1.0 0.0 48.25174331665039 48.25174331665039 0.6087239384651184 48.16699981689453 47.97100067138672 48.01499938964844 47.97100067138672 48.029998779296875 48.090999603271484 0 1
8822.872 0.10784156900279296 -1.0421716527030194 -1.8875006155463847 -1.8842755992692144 1.5659043897540974 0.3102633278612584 0.0 0.0 0.0 0.0 0.0 0.0 0.0 0.0 0.0 0.0 0.0 0.0 1.538990857485971e-16 0.2606167234481625 4.186244874333019 0.33357840339120787 -0.001692965232054418 0.0 2.148455551084145e-15 3.6410704384733705 48.04392591610705 3.8462803087436255 -0.01911658360603876 0.0 0.10785802453756332 -1.042185131703512 -1.8874743620501917 -1.8842056433307093 1.5659562349319458 0.3101951777935028 0.0 0.0 -0.0 0.0 0.0 0.0 0.4348755180835724 -0.0320434607565403 3.9702465534210205 0.4216919243335724 -0.01345825381577015 -0.1121521145105362 0.4302978813648224 -0.02288818545639515 3.9724884033203125 0.4082336723804474 -0.01345825381577015 -0.1031799390912056 0.35301346591195826 -0.11863540812838029 0.4822742161158032 1.9448055437249099 -2.35921398694578 -0.08502564572060009 0.0 0.0 0.0 0.0 0.0 0.0 -5.3518603812494945 -12.373284550718978 5.703712155111727 3.2965920622862246 0.05688106847107627 -1.8039451491395933 0.35298355645612434 -0.11865933845239308 0.48225571578807436 1.9446462009715462 -2.3592169468044437 -0.08502117995136049 0.0 0.0 0.0 0.0 0.0 0.0 0 27.12999153137207 27.37999153137207 30.19999122619629 30.709991455078125 31.6099910736084 37.3699836730957 0.41942399999999996 7 253 253 253 253 253 253 1 0.15883243083953857 1.237694263458252 -9.63183879852295 0.0 1.0 0.0 48.25174331665039 48.3125114440918 0.7161448001861572 48.137001037597656 47.939998626708984 48.0 47.97100067138672 48.029998779296875 48.07600021362305 0 1
8823.368 0.10784156900279296 -1.0421716527030194 -1.8875006155463847 -1.8842755992692144 1.5659043897540974 0.3102633278612584 0.0 0.0 0.0 0.0 0.0 0.0 0.0 0.0 0.0 0.0 0.0 0.0 1.538990857485971e-16 0.2606167234481625 4.186244874333019 0.33357840339120787 -0.001692965232054418 0.0 2.148455551084145e-15 3.6410704384733705 48.04392591610705 3.8462803087436255 -0.01911658360603876 0.0 0.10786963999271393 -1.042173210774557 -1.8874619642840784 -1.8842414061175745 1.5659202337265015 0.3102191686630249 0.0 0.0 -0.0 0.0 0.0 0.0 0.4669190049171448 -0.0411987341940403 3.9635210037231445 0.4082336723804474 -0.02243042178452015 -0.1031799390912056 0.4302978813648224 -0.02288818545639515 3.9724884033203125 0.4104767143726349 -0.01570129580795765 -0.1031799390912056 0.3530035780291628 -0.11864281748395182 0.48228312068341717 1.944774995330237 -2.3592014975397504 -0.08498551964037812 0.0 0.0 0.0 0.0 0.0 0.0 -5.189201025226578 -14.014795125822559 5.550900845435246 3.9052384068422263 -0.06819484085755376 -1.7454213148532416 0.35298355645612434 -0.11865933845239308 0.48225571578807436 1.9446462009715462 -2.3592169468044437 -0.08502117995136049 0.0 0.0 0.0 0.0 0.0 0.0 0 27.12999153137207 27.37999153137207 30.19999122619629 30.709991455078125 31.6099910736084 37.3699836730957 0.38228500000000004 7 253 253 253 253 253 253 1 0.1678229421377182 1.2586721181869507 -9.616854667663574 0.0 1.0 0.0 48.25174331665039 48.25174331665039 0.6803395748138428 48.152000427246094 47.939998626708984 48.01499938964844 47.939998626708984 48.01499938964844 48.07600021362305 0 1
8823.864 0.10784156900279296 -1.0421716527030194 -1.8875006155463847 -1.8842755992692144 1.5659043897540974 0.3102633278612584 0.0 0.0 0.0 0.0 0.0 0.0 0.0 0.0 0.0 0.0 0.0 0.0 1.538990857485971e-16 0.2606167234481625 4.186244874333019 0.33357840339120787 -0.001692965232054418 0.0 2.148455551084145e-15 3.6410704384733705 48.04392591610705 3.8462803087436255 -0.01911658360603876 0.0 0.10786963999271393 -1.0422089735614222 -1.8874743620501917 -1.8842175642596644 1.5659202337265015 0.3101951777935028 0.0 0.0 -0.0 0.0 0.0 0.0 0.4394531846046448 -0.0320434607565403 3.9769718647003174 0.4059906303882599 -0.02018737979233265 -0.0964508131146431 0.4302978813648224 -0.02288818545639515 3.9724884033203125 0.4082336723804474 -0.01345825381577015 -0.1031799390912056 0.3530209712683855 -0.11864093201332222 0.4822650912106319 1.9447901899998092 -2.3591628391282695 -0.085007171738077 0.0 0.0 0.0 0.0 0.0 0.0 -5.146695051933523 -13.135760356660276 5.211579195955258 3.645394892759635 -0.11628561849905428 -1.6306447786023448 0.35298355645612434 -0.11865933845239308 0.48225571578807436 1.9446462009715462 -2.3592169468044437 -0.08502117995136049 0.0 0.0 0.0 0.0 0.0 0.0 0 27.12999153137207 27.37999153137207 30.19999122619629 30.709991455078125 31.6099910736084 37.3699836730957 0.438624 7 253 253 253 253 253 253 1 0.14984191954135895 1.2646657228469849 -9.628841400146484 0.0 1.0 0.0 48.25174331665039 48.25174331665039 0.7161448001861572 48.137001037597656 47.939998626708984 47.986000061035156 47.97100067138672 48.01499938964844 48.07600021362305 0 1
8824.359999999999 0.10784156900279296 -1.0421716527030194 -1.8875006155463847 -1.8842755992692144 1.5659043897540974 0.3102633278612584 0.0 0.0 0.0 0.0 0.0 0.0 0.0 0.0 0.0 0.0 0.0 0.0 1.538990857485971e-16 0.2606167234481625 4.186244874333019 0.33357840339120787 -0.001692965232054418 0.0 2.148455551084145e-15 3.6410704384733705 48.04392591610705 3.8462803087436255 -0.01911658360603876 0.0 0.10785802453756332 -1.0422089735614222 -1.8874982039081019 -1.8842533270465296 1.5659083127975464 0.3101951777935028 0.0 0.0 -0.0 0.0 0.0 0.0 0.4623413681983948 0.004577637184411287 3.9814555644989014 0.3992615044116974 -0.01345825381577015 -0.1009368970990181 0.4302978813648224 -0.02288818545639515 3.9724884033203125 0.4082336723804474 -0.01345825381577015 -0.1031799390912056 0.3530054330329356 -0.11865018266912801 0.4822465847481592 1.9447409088549952 -2.3591293222749288 -0.08504031998443598 0.0 0.0 0.0 0.0 0.0 0.0 -4.011594263447014 -14.289340177739984 5.172923334140313 3.8894170204072434 0.11562924519345051 -1.7165139247325398 0.35298355645612434 -0.11865933845239308 0.48225571578807436 1.9446462009715462 -2.3592169468044437 -0.08502117995136049 0.0 0.0 0.0 0.0 0.0 0.0 0 27.12999153137207 27.37999153137207 30.19999122619629 30.709991455078125 31.6099910736084 37.3699836730957 0.401797 7 253 253 253 253 253 253 1 0.15883243083953857 1.252678394317627 -9.64382553100586 0.0 1.0 0.0 48.25174331665039 48.25174331665039 0.966796875 48.16699981689453 47.939998626708984 48.01499938964844 47.986000061035156 48.029998779296875 48.06100082397461 0 1
8824.856 0.10784156900279296 -1.0421716527030194 -1.8875006155463847 -1.8842755992692144 1.5659043897540974 0.3102633278612584 0.0 0.0 0.0 0.0 0.0 0.0 0.0 0.0 0.0 0.0 0.0 0.0 1.538990857485971e-16 0.2606167234481625 4.186244874333019 0.33357840339120787 -0.001692965232054418 0.0 2.148455551084145e-15 3.6410704384733705 48.04392591610705 3.8462803087436255 -0.01911658360603876 0.0 0.10784604400396347 -1.042173210774557 -1.8874858061419886 -1.8842294851886194 1.5659202337265015 0.31023114919662476 0.0 0.0 -0.0 0.0 0.0 0.0 0.4211426079273224 -0.0457763709127903 3.9657628536224365 0.4127197563648224 -0.011215210892260075 -0.1054229810833931 0.4302978813648224 -0.02288818545639515 3.9724884033203125 0.4104767143726349 -0.01345825381577015 -0.1031799390912056 0.3530001129984721 -0.11865130645910776 0.4822687671388834 1.9447264296187496 -2.35922860310209 -0.08499590079438549 0.0 0.0 0.0 0.0 0.0 0.0 -5.60791011231775 -11.968028027064568 5.550367366669879 3.1789735312294836 -0.1493775419788795 -1.7017486394606556 0.35298355645612434 -0.11865933845239308 0.48225571578807436 1.9446462009715462 -2.3592169468044437 -0.08502117995136049 0.0 0.0 0.0 0.0 0.0 0.0 0 27.12999153137207 27.37999153137207 30.19999122619629 30.709991455078125 31.6099910736084 37.3699836730957 0.439056 7 253 253 253 253 253 253 1 0.1318608820438385 1.2466847896575928 -9.640829086303711 0.0 1.0 0.0 48.25174331665039 48.25174331665039 0.7161448001861572 48.137001037597656 47.95500183105469 48.0 47.986000061035156 48.029998779296875 48.04600143432617 0 1
8825.351999999999 0.10784156900279296 -1.0421716527030194 -1.8875006155463847 -1.8842755992692144 1.5659043897540974 0.3102633278612584 0.0 0.0 0.0 0.0 0.0 0.0 0.0 0.0 0.0 0.0 0.0 0.0 1.538990857485971e-16 0.2606167234481625 4.186244874333019 0.33357840339120787 -0.001692965232054418 0.0 2.148455551084145e-15 3.6410704384733705 48.04392591610705 3.8462803087436255 -0.01911658360603876 0.0 0.10784604400396347 -1.042197052632467 -1.8874743620501917 -1.8842175642596644 1.5659083127975464 0.31023114919662476 0.0 0.0 -0.0 0.0 0.0 0.0 0.4257202446460724 0.009155274368822575 3.9769718647003174 0.3835602104663849 -0.02018737979233265 -0.0897216871380806 0.4302978813648224 -0.02288818545639515 3.9724884033203125 0.4082336723804474 -0.01345825381577015 -0.1031799390912056 0.3530143694245224 -0.1186530676614426 0.4822691174999713 1.9447231351757375 -2.359223163376181 -0.08498112736126082 0.0 0.0 0.0 0.0 0.0 0.0 -3.776329793237127 -13.216845884727556 4.9782249304618205 3.712033543658003 -0.02204819321587434 -1.549690652122778 0.35298355645612434 -0.11865933845239308 0.48225571578807436 1.9446462009715462 -2.3592169468044437 -0.08502117995136049 0.0 0.0 0.0 0.0 0.0 0.0 0 27.12999153137207 27.37999153137207 30.19999122619629 30.709991455078125 31.6099910736084 37.3699836730957 0.41694099999999995 7 253 253 253 253 253 253 1 0.1558355987071991 1.2586721181869507 -9.679787635803223 0.0 1.0 0.0 48.25174331665039 48.25174331665039 0.6445291042327881 48.137001037597656 47.97100067138672 48.029998779296875 47.97100067138672 48.029998779296875 48.06100082397461 0 1
8825.848 0.10784156900279296 -1.0421716527030194 -1.8875006155463847 -1.8842755992692144 1.5659043897540974 0.3102633278612584 0.0 0.0 0.0 0.0 0.0 0.0 0.0 0.0 0.0 0.0 0.0 0.0 1.538990857485971e-16 0.2606167234481625 4.186244874333019 0.33357840339120787 -0.001692965232054418 0.0 2.148455551084145e-15 3.6410704384733705 48.04392591610705 3.8462803087436255 -0.01911658360603876 0.0 0.10786963999271393 -1.0422089735614222 -1.8874743620501917 -1.8842294851886194 1.5659443140029907 0.3101951777935028 0.0 0.0 -0.0 0.0 0.0 0.0 0.4211426079273224 -0.0274658240377903 3.9702465534210205 0.3947754204273224 -0.01794433780014515 -0.1009368970990181 0.4302978813648224 -0.02288818545639515 3.9724884033203125 0.4082336723804474 -0.01345825381577015 -0.1031799390912056 0.3530166953486803 -0.1186345709362744 0.48226406904472285 1.944789980945373 -2.3591654000501547 -0.08504804108305707 0.0 0.0 0.0 0.0 0.0 0.0 -4.914577973869452 -12.30787517975629 5.171368809014932 3.395235187864002 -0.19890533871832572 -1.6639254747305965 0.35298355645612434 -0.11865933845239308 0.48225571578807436 1.9446462009715462 -2.3592169468044437 -0.08502117995136049 0.0 0.0 0.0 0.0 0.0 0.0 0 27.12999153137207 27.37999153137207 30.19999122619629 30.709991455078125 31.6099910736084 37.3699836730957 0.425916 7 253 253 253 253 253 253 1 0.16482611000537872 1.2466847896575928 -9.619851112365723 0.0 1.0 0.0 48.25174331665039 48.25174331665039 0.7161448001861572 48.12200164794922 47.95500183105469 47.986000061035156 47.97100067138672 48.0 48.07600021362305 0 1
8826.344 0.10784156900279296 -1.0421716527030194 -1.8875006155463847 -1.8842755992692144 1.5659043897540974 0.3102633278612584 0.0 0.0 0.0 0.0 0.0 0.0 0.0 0.0 0.0 0.0 0.0 0.0 1.538990857485971e-16 0.2606167234481625 4.186244874333019 0.33357840339120787 -0.001692965232054418 0.0 2.148455551084145e-15 3.6410704384733705 48.04392591610705 3.8462803087436255 -0.01911658360603876 0.0 0.10786963999271393 -1.042173210774557 -1.8874619642840784 -1.8842414061175745 1.5659443140029907 0.31020718812942505 0.0 0.0 -0.0 0.0 0.0 0.0 0.4531860947608948 0.01373291201889515 3.9747300148010254 0.4306641221046448 -0.004486084450036287 -0.0964508131146431 0.4302978813648224 -0.02288818545639515 3.9724884033203125 0.4104767143726349 -0.01345825381577015 -0.1031799390912056 0.3530027749644509 -0.11863604670346976 0.48228313507017384 1.9447955875556457 -2.359200670043238 -0.08501759253688922 0.0 0.0 0.0 0.0 0.0 0.0 -4.102269264955411 -14.072285678879448 6.0371353092646896 3.664984025421302 0.5538033305288212 -1.6391710599289966 0.35298355645612434 -0.11865933845239308 0.48225571578807436 1.9446462009715462 -2.3592169468044437 -0.08502117995136049 0.0 0.0 0.0 0.0 0.0 0.0 0 27.12999153137207 27.37999153137207 30.19999122619629 30.709991455078125 31.6099910736084 37.3699836730957 0.431029 7 253 253 253 253 253 253 1 0.14984191954135895 1.240691065788269 -9.63183879852295 0.0 1.0 0.0 48.25174331665039 48.25174331665039 0.7877604365348816 48.137001037597656 47.92499923706055 48.01499938964844 47.97100067138672 48.04600143432617 48.07600021362305 0 1
8826.84 0.10784156900279296 -1.0421716527030194 -1.8875006155463847 -1.8842755992692144 1.5659043897540974 0.3102633278612584 0.0 0.0 0.0 0.0 0.0 0.0 0.0 0.0 0.0 0.0 0.0 0.0 1.538990857485971e-16 0.2606167234481625 4.186244874333019 0.33357840339120787 -0.001692965232054418 0.0 2.148455551084145e-15 3.6410704384733705 48.04392591610705 3.8462803087436255 -0.01911658360603876 0.0 0.10784604400396347 -1.042173210774557 -1.8874982039081019 -1.8842414061175745 1.565932273864746 0.31020718812942505 0.0 0.0 -0.0 0.0 0.0 0.0 0.4348755180835724 -0.004577637184411287 3.9657628536224365 0.3880462944507599 -0.01794433780014515 -0.1054229810833931 0.4302978813648224 -0.02288818545639515 3.9724884033203125 0.4015045464038849 -0.01345825381577015 -0.1031799390912056 0.3529940866359791 -0.11864862666037895 0.48225973487810386 1.944744855190185 -2.3591948689474194 -0.08503264171623183 0.0 0.0 0.0 0.0 0.0 0.0 -4.112022048267949 -12.962891175728526 5.2781055999663025 3.581898840297386 -0.041388219261871986 -1.7430916541173511 0.35298355645612434 -0.11865933845239308 0.48225571578807436 1.9446462009715462 -2.3592169468044437 -0.08502117995136049 0.0 0.0 0.0 0.0 0.0 0.0 0 27.12999153137207 27.37999153137207 30.19999122619629 30.709991455078125 31.6099910736084 37.3699836730957 0.441324 7 253 253 253 253 253 253 1 0.14684507250785828 1.252678394317627 -9.628841400146484 0.0 1.0 0.0 48.25174331665039 48.25174331665039 0.6445291042327881 48.152000427246094 47.97100067138672 48.0 47.97100067138672 48.01499938964844 48.07600021362305 0 1
8827.336 0.10784156900279296 -1.0421716527030194 -1.8875006155463847 -1.8842755992692144 1.5659043897540974 0.3102633278612584 0.0 0.0 0.0 0.0 0.0 0.0 0.0 0.0 0.0 0.0 0.0 0.0 1.538990857485971e-16 0.2606167234481625 4.186244874333019 0.33357840339120787 -0.001692965232054418 0.0 2.148455551084145e-15 3.6410704384733705 48.04392591610705 3.8462803087436255 -0.01911658360603876 0.0 0.10789360851049423 -1.042173210774557 -1.8874619642840784 -1.8842414061175745 1.5659202337265015 0.31020718812942505 0.0 0.0 -0.0 0.0 0.0 0.0 0.4394531846046448 -0.0366210974752903 3.9635210037231445 0.4216919243335724 -0.01345825381577015 -0.1009368970990181 0.4302978813648224 -0.02288818545639515 3.9724884033203125 0.4104767143726349 -0.01345825381577015 -0.1031799390912056 0.3530064216202443 -0.11863435647733706 0.48228312068341717 1.9448172021933847 -2.3591663001407257 -0.08498475002125427 0.0 0.0 0.0 0.0 0.0 0.0 -5.344037079548275 -12.947013020629832 5.846995166152618 3.4715667674198247 0.07192909284198251 -1.6740872188025664 0.35298355645612434 -0.11865933845239308 0.48225571578807436 1.9446462009715462 -2.3592169468044437 -0.08502117995136049 0.0 0.0 0.0 0.0 0.0 0.0 0 27.12999153137207 27.37999153137207 30.19999122619629 30.709991455078125 31.6099910736084 37.3699836730957 0.391741 7 253 253 253 253 253 253 1 0.17681346833705902 1.2496815919876099 -9.658809661865234 0.0 1.0 0.0 48.25174331665039 48.3125114440918 0.7519552707672119 48.152000427246094 47.97100067138672 48.0 47.97100067138672 48.01499938964844 48.06100082397461 0 1
8827.832 0.10784156900279296 -1.0421716527030194 -1.8875006155463847 -1.8842755992692144 1.5659043897540974 0.3102633278612584 0.0 0.0 0.0 0.0 0.0 0.0 0.0 0.0 0.0 0.0 0.0 0.0 1.538990857485971e-16 0.2606167234481625 4.186244874333019 0.33357840339120787 -0.001692965232054418 0.0 2.148455551084145e-15 3.6410704384733705 48.04392591610705 3.8462803087436255 -0.01911658360603876 0.0 0.10786963999271393 -1.0421612898456019 -1.8874500433551233 -1.8842294851886194 1.5659682750701904 0.3102191686630249 0.0 0.0 -0.0 0.0 0.0 0.0 0.4257202446460724 0.0 3.9657628536224365 0.4082336723804474 -0.011215210892260075 -0.1121521145105362 0.4302978813648224 -0.02288818545639515 3.9724884033203125 0.4059906303882599 -0.01345825381577015 -0.1031799390912056 0.3530033176151434 -0.11862906918360226 0.4822959145890394 1.944807105094977 -2.3592463896548974 -0.08501905334567599 0.0 0.0 0.0 0.0 0.0 0.0 -4.3015455654504136 -12.32377019177951 5.717562066977799 3.273489329986674 0.19001959384771122 -1.8028801726648387 0.35298355645612434 -0.11865933845239308 0.48225571578807436 1.9446462009715462 -2.3592169468044437 -0.08502117995136049 0.0 0.0 0.0 0.0 0.0 0.0 0 27.12999153137207 27.37999153137207 30.19999122619629 30.709991455078125 31.6099910736084 37.3699836730957 0.40176 7 253 253 253 253 253 253 1 0.16182926297187805 1.2466847896575928 -9.640829086303711 0.0 1.0 0.0 48.25174331665039 48.25174331665039 0.6803395748138428 48.152000427246094 47.97100067138672 48.01499938964844 47.97100067138672 48.01499938964844 48.06100082397461 0 1
8828.328 0.10784156900279296 -1.0421716527030194 -1.8875006155463847 -1.8842755992692144 1.5659043897540974 0.3102633278612584 0.0 0.0 0.0 0.0 0.0 0.0 0.0 0.0 0.0 0.0 0.0 0.0 1.538990857485971e-16 0.2606167234481625 4.186244874333019 0.33357840339120787 -0.001692965232054418 0.0 2.148455551084145e-15 3.6410704384733705 48.04392591610705 3.8462803087436255 -0.01911658360603876 0.0 0.10785802453756332 -1.042197052632467 -1.8874500433551233 -1.8842294851886194 1.5658843517303467 0.3102191686630249 0.0 0.0 -0.0 0.0 0.0 0.0 0.3753662407398224 -0.0320434607565403 3.9769718647003174 0.3858032524585724 -0.011215210892260075 -0.1256103664636612 0.4302978813648224 -0.02288818545639515 3.9724884033203125 0.4104767143726349 -0.01345825381577015 -0.1031799390912056 0.353017338328282 -0.11865540467237654 0.48228376480766066 1.944752225517871 -2.3591973707322427 -0.08493995940870207 0.0 0.0 0.0 0.0 0.0 0.0 -5.300811110884255 -9.489233468477885 4.782480566376587 2.5025811211866706 -0.47102539043198033 -1.8965105608957105 0.35298355645612434 -0.11865933845239308 0.48225571578807436 1.9446462009715462 -2.3592169468044437 -0.08502117995136049 0.0 0.0 0.0 0.0 0.0 0.0 0 27.12999153137207 27.37999153137207 30.19999122619629 30.709991455078125 31.6099910736084 37.3699836730957 0.457669 7 253 253 253 253 253 253 1 0.15883243083953857 1.2496815919876099 -9.628841400146484 0.0 1.0 0.0 48.25174331665039 48.25174331665039 0.7161448001861572 48.152000427246094 47.95500183105469 47.97100067138672 47.986000061035156 48.0 48.07600021362305 0 1
8828.823999999999 0.10784156900279296 -1.0421716527030194 -1.8875006155463847 -1.8842755992692144 1.5659043897540974 0.3102633278612584 0.0 0.0 0.0 0.0 0.0 0.0 0.0 0.0 0.0 0.0 0.0 0.0 1.538990857485971e-16 0.2606167234481625 4.186244874333019 0.33357840339120787 -0.001692965232054418 0.0 2.148455551084145e-15 3.6410704384733705 48.04392591610705 3.8462803087436255 -0.01911658360603876 0.0 0.10788162052631378 -1.042173210774557 -1.8874982039081019 -1.884277645741598 1.5659443140029907 0.3101951777935028 0.0 0.0 -0.0 0.0 0.0 0.0 0.4394531846046448 -0.0457763709127903 3.9702465534210205 0.4261780083179474 -0.011215210892260075 -0.0919647291302681 0.4302978813648224 -0.02288818545639515 3.9724884033203125 0.4082336723804474 -0.01345825381577015 -0.1031799390912056 0.35298734840299256 -0.1186339285347985 0.4822565912194261 1.944784057742349 -2.359129029722187 -0.08507585964708307 0.0 0.0 0.0 0.0 0.0 0.0 -5.683109574320479 -13.158006616661282 5.718286300882659 3.5097956752102326 0.015888485689411508 -1.5596328748293864 0.35298355645612434 -0.11865933845239308 0.48225571578807436 1.9446462009715462 -2.3592169468044437 -0.08502117995136049 0.0 0.0 0.0 0.0 0.0 0.0 0 27.12999153137207 27.37999153137207 30.19999122619629 30.709991455078125 31.6099910736084 37.3699836730957 0.423456 7 253 253 253 253 253 253 1 0.17081978917121887 1.225706934928894 -9.655813217163086 0.0 1.0 0.0 48.25174331665039 48.25174331665039 0.6445291042327881 48.16699981689453 47.95500183105469 48.0 47.95500183105469 48.01499938964844 48.07600021362305 0 1
8829.32 0.10784156900279296 -1.0421716527030194 -1.8875006155463847 -1.8842755992692144 1.5659043897540974 0.3102633278612584 0.0 0.0 0.0 0.0 0.0 0.0 0.0 0.0 0.0 0.0 0.0 0.0 1.538990857485971e-16 0.2606167234481625 4.186244874333019 0.33357840339120787 -0.001692965232054418 0.0 2.148455551084145e-15 3.6410704384733705 48.04392591610705 3.8462803087436255 -0.01911658360603876 0.0 0.10788162052631378 -1.0422089735614222 -1.8874500433551233 -1.8842533270465296 1.5659202337265015 0.3101951777935028 0.0 0.0 -0.0 0.0 0.0 0.0 0.4302978813648224 -0.0320434607565403 3.9612791538238525 0.4216919243335724 -0.01345825381577015 -0.1031799390912056 0.4302978813648224 -0.02288818545639515 3.9724884033203125 0.4082336723804474 -0.01345825381577015 -0.1031799390912056 0.353016195470617 -0.1186373511307971 0.48227767942823174 1.9447982400435642 -2.359142942585247 -0.08501551468625357 0.0 0.0 0.0 0.0 0.0 0.0 -5.2470016172388645 -12.523235018585968 5.927253493916698 3.3481325459478373 0.10732144403066537 -1.6917556635307927 0.35298355645612434 -0.11865933845239308 0.48225571578807436 1.9446462009715462 -2.3592169468044437 -0.08502117995136049 0.0 0.0 0.0 0.0 0.0 0.0 0 27.12999153137207 27.37999153137207 30.19999122619629 30.709991455078125 31.6099910736084 37.3699836730957 0.468289 7 253 253 253 253 253 253 1 0.16182926297187805 1.2436878681182861 -9.616854667663574 0.0 1.0 0.0 48.25174331665039 48.25174331665039 0.7877604365348816 48.12200164794922 47.95500183105469 48.0 47.95500183105469 48.01499938964844 48.07600021362305 0 1
8829.815999999999 0.10784156900279296 -1.0421716527030194 -1.8875006155463847 -1.8842755992692144 1.5659043897540974 0.3102633278612584 0.0 0.0 0.0 0.0 0.0 0.0 0.0 0.0 0.0 0.0 0.0 0.0 1.538990857485971e-16 0.2606167234481625 4.186244874333019 0.33357840339120787 -0.001692965232054418 0.0 2.148455551084145e-15 3.6410704384733705 48.04392591610705 3.8462803087436255 -0.01911658360603876 0.0 0.10786963999271393 -1.042173210774557 -1.8874619642840784 -1.8842652479754847 1.5659202337265015 0.31023114919662476 0.0 0.0 -0.0 0.0 0.0 0.0 0.4440308213233948 0.01831054873764515 3.9769718647003174 0.3992615044116974 -0.01345825381577015 -0.0874786451458931 0.4302978813648224 -0.02288818545639515 3.9724884033203125 0.4082336723804474 -0.01345825381577015 -0.1031799390912056 0.3529966323542258 -0.11864363688945537 0.48228104744441586 1.9447477244710625 -2.3591968642207757 -0.08500388193639583 0.0 0.0 0.0 0.0 0.0 0.0 -3.622364325509759 -14.116423481386189 5.357233289461251 3.8560730530421377 0.24681689382178562 -1.5372824639312912 0.35298355645612434 -0.11865933845239308 0.48225571578807436 1.9446462009715462 -2.3592169468044437 -0.08502117995136049 0.0 0.0 0.0 0.0 0.0 0.0 0 27.12999153137207 27.37999153137207 30.19999122619629 30.709991455078125 31.6099910736084 37.3699836730957 0.367476 7 253 253 253 253 253 253 1 0.1558355987071991 1.2436878681182861 -9.637831687927246 0.0 1.0 0.0 48.25174331665039 48.25174331665039 0.6087239384651184 48.16699981689453 47.939998626708984 48.01499938964844 47.97100067138672 48.01499938964844 48.07600021362305 0 1
8830.312 0.10784156900279296 -1.0421716527030194 -1.8875006155463847 -1.8842755992692144 1.5659043897540974 0.3102633278612584 0.0 0.0 0.0 0.0 0.0 0.0 0.0 0.0 0.0 0.0 0.0 0.0 1.538990857485971e-16 0.2606167234481625 4.186244874333019 0.33357840339120787 -0.001692965232054418 0.0 2.148455551084145e-15 3.6410704384733705 48.04392591610705 3.8462803087436255 -0.01911658360603876 0.0 0.10785802453756332 -1.0422089735614222 -1.8874500433551233 -1.8842533270465296 1.5659083127975464 0.3102191686630249 0.0 0.0 -0.0 0.0 0.0 0.0 0.4440308213233948 -0.004577637184411287 3.9635210037231445 0.4216919243335724 -0.01794433780014515 -0.0942077711224556 0.4302978813648224 -0.02288818545639515 3.9724884033203125 0.4104767143726349 -0.01345825381577015 -0.1031799390912056 0.35301379353094386 -0.11864903273946177 0.4822776723653453 1.9447390012873087 -2.3591839686858487 -0.08499999260121194 0.0 0.0 0.0 0.0 0.0 0.0 -4.421278150558965 -13.62983677088863 6.028453921317334 3.7258138987511726 0.36497151880715917 -1.6140021317289548 0.35298355645612434 -0.11865933845239308 0.48225571578807436 1.9446462009715462 -2.3592169468044437 -0.08502117995136049 0.0 0.0 0.0 0.0 0.0 0.0 0 27.12999153137207 27.37999153137207 30.19999122619629 30.709991455078125 31.6099910736084 37.3699836730957 0.421657 7 253 253 253 253 253 253 1 0.1798103004693985 1.240691065788269 -9.649819374084473 0.0 1.0 0.0 48.25174331665039 48.25174331665039 0.7161448001861572 48.137001037597656 47.939998626708984 48.029998779296875 47.986000061035156 48.029998779296875 48.090999603271484 0 1
8830.807999999999 0.10784156900279296 -1.0421716527030194 -1.8875006155463847 -1.8842755992692144 1.5659043897540974 0.3102633278612584 0.0 0.0 0.0 0.0 0.0 0.0 0.0 0.0 0.0 0.0 0.0 0.0 1.538990857485971e-16 0.2606167234481625 4.186244874333019 0.33357840339120787 -0.001692965232054418 0.0 2.148455551084145e-15 3.6410704384733705 48.04392591610705 3.8462803087436255 -0.01911658360603876 0.0 0.10783405601978302 -1.042185131703512 -1.8874743620501917 -1.8842056433307093 1.565932273864746 0.31020718812942505 0.0 0.0 -0.0 0.0 0.0 0.0 0.4394531846046448 0.01373291201889515 3.9612791538238525 0.3902893364429474 -0.02243042178452015 -0.1143951565027237 0.4302978813648224 -0.02288818545639515 3.9724884033203125 0.4082336723804474 -0.01345825381577015 -0.1031799390912056 0.35301142113491707 -0.11865060659506274 0.4822742017182047 1.9447570695184786 -2.359238683013501 -0.08499526451609246 0.0 0.0 0.0 0.0 0.0 0.0 -3.608786382069537 -12.982733278475553 5.541900520682192 3.624814081891782 0.1640266459351944 -1.8672145376542606 0.35298355645612434 -0.11865933845239308 0.48225571578807436 1.9446462009715462 -2.3592169468044437 -0.08502117995136049 0.0 0.0 0.0 0.0 0.0 0.0 0 27.12999153137207 27.37999153137207 30.19999122619629 30.709991455078125 31.6099910736084 37.3699836730957 0.44045999999999996 7 253 253 253 253 253 253 1 0.12586720287799835 1.2706594467163086 -9.586885452270508 0.0 1.0 0.0 48.25174331665039 48.25174331665039 0.7877604365348816 48.152000427246094 47.939998626708984 48.029998779296875 47.986000061035156 48.04600143432617 48.06100082397461 0 1
8831.304 0.10784156900279296 -1.0421716527030194 -1.8875006155463847 -1.8842755992692144 1.5659043897540974 0.3102633278612584 0.0 0.0 0.0 0.0 0.0 0.0 0.0 0.0 0.0 0.0 0.0 0.0 1.538990857485971e-16 0.2606167234481625 4.186244874333019 0.33357840339120787 -0.001692965232054418 0.0 2.148455551084145e-15 3.6410704384733705 48.04392591610705 3.8462803087436255 -0.01911658360603876 0.0 0.10788162052631378 -1.042197052632467 -1.8874500433551233 -1.8842294851886194 1.5659562349319458 0.31020718812942505 0.0 0.0 -0.0 0.0 0.0 0.0 0.4257202446460724 -0.01831054873764515 3.9836974143981934 0.4261780083179474 -0.02243042178452015 -0.0964508131146431 0.4302978813648224 -0.02288818545639515 3.9724884033203125 0.4082336723804474 -0.01345825381577015 -0.1031799390912056 0.3530177404879356 -0.11862686309198067 0.4822838075169731 1.9448126917883641 -2.3591941317978176 -0.08503265990107065 0.0 0.0 0.0 0.0 0.0 0.0 -5.154333160715846 -12.563978252586402 5.532104347422198 3.478072961230624 0.17206472940645268 -1.6167506939155478 0.35298355645612434 -0.11865933845239308 0.48225571578807436 1.9446462009715462 -2.3592169468044437 -0.08502117995136049 0.0 0.0 0.0 0.0 0.0 0.0 0 27.12999153137207 27.37999153137207 30.19999122619629 30.709991455078125 31.6099910736084 37.3699836730957 0.450241 7 253 253 253 253 253 253 1 0.1558355987071991 1.2436878681182861 -9.664803504943848 0.0 1.0 0.0 48.25174331665039 48.25174331665039 0.6803395748138428 48.152000427246094 47.986000061035156 48.01499938964844 47.97100067138672 48.029998779296875 48.07600021362305 0 1
8831.8 0.10784156900279296 -1.0421716527030194 -1.8875006155463847 -1.8842755992692144 1.5659043897540974 0.3102633278612584 0.0 0.0 0.0 0.0 0.0 0.0 0.0 0.0 0.0 0.0 0.0 0.0 1.538990857485971e-16 0.2606167234481625 4.186244874333019 0.33357840339120787 -0.001692965232054418 0.0 2.148455551084145e-15 3.6410704384733705 48.04392591610705 3.8462803087436255 -0.01911658360603876 0.0 0.10783405601978302 -1.042185131703512 -1.8874619642840784 -1.8842414061175745 1.5659443140029907 0.31020718812942505 0.0 0.0 -0.0 0.0 0.0 0.0 0.4760742783546448 -0.01831054873764515 3.9657628536224365 0.4127197563648224 -0.011215210892260075 -0.0942077711224556 0.4302978813648224 -0.02288818545639515 3.9724884033203125 0.4104767143726349 -0.01345825381577015 -0.1031799390912056 0.3530027531490328 -0.11864815398004443 0.4822791018772078 1.9447476860133146 -2.359228096742726 -0.08502962983232228 0.0 0.0 0.0 0.0 0.0 0.0 -4.5564351734496364 -14.926991797525005 5.717706438872329 4.024429924870528 0.17248044222507808 -1.641774818228435 0.35298355645612434 -0.11865933845239308 0.48225571578807436 1.9446462009715462 -2.3592169468044437 -0.08502117995136049 0.0 0.0 0.0 0.0 0.0 0.0 0 27.12999153137207 27.37999153137207 30.19999122619629 30.709991455078125 31.6099910736084 37.3699836730957 0.45095999999999997 7 253 253 253 253 253 253 1 0.16182926297187805 1.2556753158569336 -9.616854667663574 0.0 1.0 0.0 48.25174331665039 48.25174331665039 0.7519552707672119 48.16699981689453 47.92499923706055 48.01499938964844 47.95500183105469 48.01499938964844 48.06100082397461 0 1
8832.296 0.10784156900279296 -1.0421716527030194 -1.8875006155463847 -1.8842755992692144 1.5659043897540974 0.3102633278612584 0.0 0.0 0.0 0.0 0.0 0.0 0.0 0.0 0.0 0.0 0.0 0.0 1.538990857485971e-16 0.2606167234481625 4.186244874333019 0.33357840339120787 -0.001692965232054418 0.0 2.148455551084145e-15 3.6410704384733705 48.04392591610705 3.8462803087436255 -0.01911658360603876 0.0 0.10785802453756332 -1.0421612898456019 -1.8874982039081019 -1.8842414061175745 1.5659443140029907 0.31020718812942505 0.0 0.0 -0.0 0.0 0.0 0.0 0.4074096977710724 -0.0503540076315403 3.9747300148010254 0.4284210503101349 -0.01345825381577015 -0.1076660305261612 0.4257202446460724 -0.02288818545639515 3.9724884033203125 0.4104767143726349 -0.01345825381577015 -0.1031799390912056 0.35299090688481227 -0.11864146616449417 0.4822637751588701 1.9447684350787793 -2.3591961590311596 -0.08503777123790617 0.0 0.0 0.0 0.0 0.0 0.0 -6.093340780907543 -11.173699324844904 5.619312273966557 2.9561457506789806 -0.08056206387480744 -1.7097609977287225 0.35298355645612434 -0.11865933845239308 0.48225571578807436 1.9446462009715462 -2.3592169468044437 -0.08502117995136049 0.0 0.0 0.0 0.0 0.0 0.0 0 27.12999153137207 27.37999153137207 30.19999122619629 30.709991455078125 31.6099910736084 37.3699836730957 0.43971699999999997 7 253 253 253 253 253 253 1 0.1438482403755188 1.2496815919876099 -9.622847557067871 0.0 1.0 0.0 48.25174331665039 48.25174331665039 0.6087239384651184 48.137001037597656 47.92499923706055 48.01499938964844 47.97100067138672 48.04600143432617 48.06100082397461 0 1
8832.792 0.10784156900279296 -1.0421716527030194 -1.8875006155463847 -1.8842755992692144 1.5659043897540974 0.3102633278612584 0.0 0.0 0.0 0.0 0.0 0.0 0.0 0.0 0.0 0.0 0.0 0.0 1.538990857485971e-16 0.2606167234481625 4.186244874333019 0.33357840339120787 -0.001692965232054418 0.0 2.148455551084145e-15 3.6410704384733705 48.04392591610705 3.8462803087436255 -0.01911658360603876 0.0 0.10789360851049423 -1.042197052632467 -1.8874743620501917 -1.8842294851886194 1.5659083127975464 0.3101951777935028 0.0 0.0 -0.0 0.0 0.0 0.0 0.4211426079273224 -0.01831054873764515 3.9724884033203125 0.4306641221046448 -0.01345825381577015 -0.1054229810833931 0.4302978813648224 -0.02288818545639515 3.9724884033203125 0.4104767143726349 -0.01345825381577015 -0.1031799390912056 0.35301653986558035 -0.11863668635845032 0.482268080903038 1.9448150113073148 -2.3591336804506193 -0.08498994876452787 0.0 0.0 0.0 0.0 0.0 0.0 -5.146889475590821 -12.101705897281024 5.905783229503966 3.2128095825869623 0.2501350053195186 -1.7091374919487632 0.35298355645612434 -0.11865933845239308 0.48225571578807436 1.9446462009715462 -2.3592169468044437 -0.08502117995136049 0.0 0.0 0.0 0.0 0.0 0.0 0 27.12999153137207 27.37999153137207 30.19999122619629 30.709991455078125 31.6099910736084 37.3699836730957 0.451032 7 253 253 253 253 253 253 1 0.15883243083953857 1.2646657228469849 -9.628841400146484 0.0 1.0 0.0 48.25174331665039 48.25174331665039 0.6445291042327881 48.12200164794922 47.939998626708984 47.95500183105469 47.986000061035156 48.04600143432617 48.07600021362305 0 1
8833.288 0.10784156900279296 -1.0421716527030194 -1.8875006155463847 -1.8842755992692144 1.5659043897540974 0.3102633278612584 0.0 0.0 0.0 0.0 0.0 0.0 0.0 0.0 0.0 0.0 0.0 0.0 1.538990857485971e-16 0.2606167234481625 4.186244874333019 0.33357840339120787 -0.001692965232054418 0.0 2.148455551084145e-15 3.6410704384733705 48.04392591610705 3.8462803087436255 -0.01911658360603876 0.0 0.10786963999271393 -1.042173210774557 -1.8874743620501917 -1.8842533270465296 1.5659083127975464 0.31025511026382446 0.0 0.0 -0.0 0.0 0.0 0.0 0.4577637314796448 -0.004577637184411287 3.9680047035217285 0.3858032524585724 -0.006729126907885075 -0.1211242824792862 0.4302978813648224 -0.02288818545639515 3.9724884033203125 0.4104767143726349 -0.011215210892260075 -0.1031799390912056 0.35299835088887377 -0.11864687506690114 0.4822740741378813 1.9447155379426448 -2.359214278673101 -0.08498726508376585 0.0 0.0 0.0 0.0 0.0 0.0 -4.054065149066401 -13.421241275076257 5.182299374010927 3.5543641665689356 -0.07969459722449987 -1.9463763001902343 0.35298355645612434 -0.11865933845239308 0.48225571578807436 1.9446462009715462 -2.3592169468044437 -0.08502117995136049 0.0 0.0 0.0 0.0 0.0 0.0 0 27.12999153137207 27.37999153137207 30.19999122619629 30.709991455078125 31.6099910736084 37.3699836730957 0.474877 7 253 253 253 253 253 253 1 0.1798103004693985 1.2436878681182861 -9.625844955444336 0.0 1.0 0.0 48.25174331665039 48.25174331665039 0.6803395748138428 48.137001037597656 47.939998626708984 48.029998779296875 47.97100067138672 48.01499938964844 48.07600021362305 0 1
8833.784 0.10784156900279296 -1.0421716527030194 -1.8875006155463847 -1.8842755992692144 1.5659043897540974 0.3102633278612584 0.0 0.0 0.0 0.0 0.0 0.0 0.0 0.0 0.0 0.0 0.0 0.0 1.538990857485971e-16 0.2606167234481625 4.186244874333019 0.33357840339120787 -0.001692965232054418 0.0 2.148455551084145e-15 3.6410704384733705 48.04392591610705 3.8462803087436255 -0.01911658360603876 0.0 0.10789360851049423 -1.042197052632467 -1.8874743620501917 -1.8842414061175745 1.5659562349319458 0.3102191686630249 0.0 0.0 -0.0 0.0 0.0 0.0 0.4119873344898224 -0.0411987341940403 3.9747300148010254 0.4351502060890198 -0.01570129580795765 -0.0986938551068306 0.4302978813648224 -0.02288818545639515 3.9724884033203125 0.4104767143726349 -0.01345825381577015 -0.1031799390912056 0.3530114685197828 -0.1186236216602725 0.4822670729822184 1.9447923049952194 -2.3591695649785267 -0.08506027148110203 0.0 0.0 0.0 0.0 0.0 0.0 -5.870734446335494 -11.728533697982474 5.810021373391139 3.1397437286574337 0.09119798032184906 -1.6118339892669176 0.35298355645612434 -0.11865933845239308 0.48225571578807436 1.9446462009715462 -2.3592169468044437 -0.08502117995136049 0.0 0.0 0.0 0.0 0.0 0.0 0 27.12999153137207 27.37999153137207 30.19999122619629 30.709991455078125 31.6099910736084 37.3699836730957 0.486132 7 253 253 253 253 253 253 1 0.1798103004693985 1.2346973419189453 -9.616854667663574 0.0 1.0 0.0 48.25174331665039 48.25174331665039 0.6445291042327881 48.137001037597656 47.92499923706055 48.0 47.986000061035156 48.0 48.07600021362305 0 1
8834.279999999999 0.10784156900279296 -1.0421716527030194 -1.8875006155463847 -1.8842755992692144 1.5659043897540974 0.3102633278612584 0.0 0.0 0.0 0.0 0.0 0.0 0.0 0.0 0.0 0.0 0.0 0.0 1.538990857485971e-16 0.2606167234481625 4.186244874333019 0.33357840339120787 -0.001692965232054418 0.0 2.148455551084145e-15 3.6410704384733705 48.04392591610705 3.8462803087436255 -0.01911658360603876 0.0 0.10784604400396347 -1.042185131703512 -1.8874982039081019 -1.8842533270465296 1.5659202337265015 0.31020718812942505 0.0 0.0 -0.0 0.0 0.0 0.0 0.4531860947608948 -0.0457763709127903 3.9769718647003174 0.4216919243335724 -0.008972168900072575 -0.1031799390912056 0.4302978813648224 -0.02288818545639515 3.9724884033203125 0.4104767143726349 -0.01345825381577015 -0.1031799390912056 0.3529952148660319 -0.11865196777517106 0.48225465811504886 1.9447287392052954 -2.359173667227832 -0.08503630891707525 0.0 0.0 0.0 0.0 0.0 0.0 -5.674231934918796 -13.348241284160537 5.461241463700576 3.5301739040494775 -0.0654825903663564 -1.7082798778966906 0.35298355645612434 -0.11865933845239308 0.48225571578807436 1.9446462009715462 -2.3592169468044437 -0.08502117995136049 0.0 0.0 0.0 0.0 0.0 0.0 0 27.12999153137207 27.37999153137207 30.19999122619629 30.709991455078125 31.6099910736084 37.3699836730957 0.405685 7 253 253 253 253 253 253 1 0.1678229421377182 1.2496815919876099 -9.604866981506348 0.0 1.0 0.0 48.25174331665039 48.25174331665039 0.6087239384651184 48.152000427246094 47.939998626708984 48.04600143432617 47.95500183105469 48.01499938964844 48.07600021362305 0 1
8834.776 0.10784156900279296 -1.0421716527030194 -1.8875006155463847 -1.8842755992692144 1.5659043897540974 0.3102633278612584 0.0 0.0 0.0 0.0 0.0 0.0 0.0 0.0 0.0 0.0 0.0 0.0 1.538990857485971e-16 0.2606167234481625 4.186244874333019 0.33357840339120787 -0.001692965232054418 0.0 2.148455551084145e-15 3.6410704384733705 48.04392591610705 3.8462803087436255 -0.01911658360603876 0.0 0.10786963999271393 -1.0421488920794886 -1.887522045766012 -1.8842533270465296 1.565932273864746 0.3102191686630249 0.0 0.0 -0.0 0.0 0.0 0.0 0.4257202446460724 -0.01373291201889515 3.9612791538238525 0.4329071640968323 -0.01794433780014515 -0.1099090725183487 0.4302978813648224 -0.02288818545639515 3.9724884033203125 0.4082336723804474 -0.01345825381577015 -0.1031799390912056 0.3529807073944747 -0.11864220256513651 0.4822515356734065 1.944751526778373 -2.35917519039996 -0.08503922803909551 0.0 0.0 0.0 0.0 0.0 0.0 -4.935161796868346 -12.187208701382145 6.260711793866325 3.279476067783289 0.3780165940294168 -1.7761322681961094 0.35298355645612434 -0.11865933845239308 0.48225571578807436 1.9446462009715462 -2.3592169468044437 -0.08502117995136049 0.0 0.0 0.0 0.0 0.0 0.0 0 27.12999153137207 27.37999153137207 30.19999122619629 30.709991455078125 31.6099910736084 37.3699836730957 0.46686 7 253 253 253 253 253 253 1 0.17381662130355835 1.2317005395889282 -9.595876693725586 0.0 1.0 0.0 48.25174331665039 48.25174331665039 0.6087239384651184 48.152000427246094 47.95500183105469 48.0 47.986000061035156 48.01499938964844 48.06100082397461 0 1
8835.271999999999 0.10784156900279296 -1.0421716527030194 -1.8875006155463847 -1.8842755992692144 1.5659043897540974 0.3102633278612584 0.0 0.0 0.0 0.0 0.0 0.0 0.0 0.0 0.0 0.0 0.0 0.0 1.538990857485971e-16 0.2606167234481625 4.186244874333019 0.33357840339120787 -0.001692965232054418 0.0 2.148455551084145e-15 3.6410704384733705 48.04392591610705 3.8462803087436255 -0.01911658360603876 0.0 0.10783405601978302 -1.0422089735614222 -1.8874858061419886 -1.8842414061175745 1.5659083127975464 0.31020718812942505 0.0 0.0 -0.0 0.0 0.0 0.0 0.4806519150733948 -0.02288818545639515 3.9567956924438477 0.3925323784351349 -0.02018737979233265 -0.1099090725183487 0.4302978813648224 -0.02288818545639515 3.9724884033203125 0.4082336723804474 -0.01345825381577015 -0.1031799390912056 0.35300821432633794 -0.11865793808077707 0.48225562389411575 1.9447120330915184 -2.3591807543758505 -0.0850215377860027 0.0 0.0 0.0 0.0 0.0 0.0 -4.385163176058063 -14.598863697586768 5.504057174369518 4.056131232391954 -0.042315052995945734 -1.8494539510046226 0.35298355645612434 -0.11865933845239308 0.48225571578807436 1.9446462009715462 -2.3592169468044437 -0.08502117995136049 0.0 0.0 0.0 0.0 0.0 0.0 0 27.12999153137207 27.37999153137207 30.19999122619629 30.709991455078125 31.6099910736084 37.3699836730957 0.352549 7 253 253 253 253 253 253 1 0.17681346833705902 1.2586721181869507 -9.63183879852295 0.0 1.0 0.0 48.25174331665039 48.3125114440918 0.5729187726974487 48.137001037597656 47.92499923706055 48.0 47.986000061035156 48.01499938964844 48.06100082397461 0 1
8835.768 0.10784156900279296 -1.0421716527030194 -1.8875006155463847 -1.8842755992692144 1.5659043897540974 0.3102633278612584 0.0 0.0 0.0 0.0 0.0 0.0 0.0 0.0 0.0 0.0 0.0 0.0 1.538990857485971e-16 0.2606167234481625 4.186244874333019 0.33357840339120787 -0.001692965232054418 0.0 2.148455551084145e-15 3.6410704384733705 48.04392591610705 3.8462803087436255 -0.01911658360603876 0.0 0.10785802453756332 -1.042197052632467 -1.8874982039081019 -1.8842414061175745 1.5659562349319458 0.31018319725990295 0.0 0.0 -0.0 0.0 0.0 0.0 0.3982544243335724 -0.01373291201889515 3.9747300148010254 0.4104767143726349 -0.01794433780014515 -0.1009368970990181 0.4302978813648224 -0.02288818545639515 3.9724884033203125 0.4082336723804474 -0.01345825381577015 -0.1031799390912056 0.353003108359588 -0.11863675240708299 0.4822516829904127 1.9447806843290314 -2.359154883646504 -0.08508406721833245 0.0 0.0 0.0 0.0 0.0 0.0 -4.885276394730583 -11.37811457175237 5.453890006325782 3.1061763819436194 0.03612066187074271 -1.6375139312592168 0.35298355645612434 -0.11865933845239308 0.48225571578807436 1.9446462009715462 -2.3592169468044437 -0.08502117995136049 0.0 0.0 0.0 0.0 0.0 0.0 0 27.12999153137207 27.37999153137207 30.19999122619629 30.709991455078125 31.6099910736084 37.3699836730957 0.473736 7 253 253 253 253 253 253 1 0.14684507250785828 1.2496815919876099 -9.6618070602417 0.0 1.0 0.0 48.25174331665039 48.25174331665039 0.6445291042327881 48.18299865722656 47.92499923706055 48.0 47.95500183105469 48.029998779296875 48.07600021362305 0 1
8836.264 0.10784156900279296 -1.0421716527030194 -1.8875006155463847 -1.8842755992692144 1.5659043897540974 0.3102633278612584 0.0 0.0 0.0 0.0 0.0 0.0 0.0 0.0 0.0 0.0 0.0 0.0 1.538990857485971e-16 0.2606167234481625 4.186244874333019 0.33357840339120787 -0.001692965232054418 0.0 2.148455551084145e-15 3.6410704384733705 48.04392591610705 3.8462803087436255 -0.01911658360603876 0.0 0.10785802453756332 -1.042173210774557 -1.8874619642840784 -1.8842294851886194 1.5659202337265015 0.31023114919662476 0.0 0.0 -0.0 0.0 0.0 0.0 0.4211426079273224 -0.01373291201889515 3.9724884033203125 0.3835602104663849 -0.008972168900072575 -0.1166381984949112 0.4302978813648224 -0.02288818545639515 3.9724884033203125 0.4104767143726349 -0.011215210892260075 -0.1031799390912056 0.35300567273889855 -0.11864650811340939 0.4822841573654457 1.9447536253908153 -2.359232455738053 -0.08497593030348725 0.0 0.0 0.0 0.0 0.0 0.0 -4.476832898100762 -11.934183610557639 4.962567306747522 3.1757402152248067 -0.2468064017640339 -1.8478546419137496 0.35298355645612434 -0.11865933845239308 0.48225571578807436 1.9446462009715462 -2.3592169468044437 -0.08502117995136049 0.0 0.0 0.0 0.0 0.0 0.0 0 27.12999153137207 27.37999153137207 30.19999122619629 30.709991455078125 31.6099910736084 37.3699836730957 0.46926100000000004 7 253 253 253 253 253 253 1 0.17081978917121887 1.237694263458252 -9.625844955444336 0.0 1.0 0.0 48.25174331665039 48.3125114440918 0.6803395748138428 48.137001037597656 47.939998626708984 48.029998779296875 47.939998626708984 48.01499938964844 48.06100082397461 0 1
8836.76 0.10784156900279296 -1.0421716527030194 -1.8875006155463847 -1.8842755992692144 1.5659043897540974 0.3102633278612584 0.0 0.0 0.0 0.0 0.0 0.0 0.0 0.0 0.0 0.0 0.0 0.0 1.538990857485971e-16 0.2606167234481625 4.186244874333019 0.33357840339120787 -0.001692965232054418 0.0 2.148455551084145e-15 3.6410704384733705 48.04392591610705 3.8462803087436255 -0.01911658360603876 0.0 0.10783405601978302 -1.042185131703512 -1.8874619642840784 -1.8842414061175745 1.5659202337265015 0.31023114919662476 0.0 0.0 -0.0 0.0 0.0 0.0 0.4531860947608948 -0.01373291201889515 3.9657628536224365 0.4284210503101349 -0.01345825381577015 -0.1076660305261612 0.4302978813648224 -0.02288818545639515 3.9724884033203125 0.4104767143726349 -0.011215210892260075 -0.1031799390912056 0.3530035559726352 -0.11865492478911771 0.48227908748961534 1.9447127631080843 -2.35924033236903 -0.08499678802280922 0.0 0.0 0.0 0.0 0.0 0.0 -4.785955174797731 -13.451118126626685 6.062190530227735 3.5914310705197146 0.3398045921658901 -1.7772342809565052 0.35298355645612434 -0.11865933845239308 0.48225571578807436 1.9446462009715462 -2.3592169468044437 -0.08502117995136049 0.0 0.0 0.0 0.0 0.0 0.0 0 27.12999153137207 27.37999153137207 30.19999122619629 30.709991455078125 31.6099910736084 37.3699836730957 0.439716 7 253 253 253 253 253 253 1 0.1678229421377182 1.2466847896575928 -9.658809661865234 0.0 1.0 0.0 48.25174331665039 48.25174331665039 0.7161448001861572 48.137001037597656 47.97100067138672 48.01499938964844 47.95500183105469 48.01499938964844 48.04600143432617 0 1
8837.256 0.10784156900279296 -1.0421716527030194 -1.8875006155463847 -1.8842755992692144 1.5659043897540974 0.3102633278612584 0.0 0.0 0.0 0.0 0.0 0.0 0.0 0.0 0.0 0.0 0.0 0.0 1.538990857485971e-16 0.2606167234481625 4.186244874333019 0.33357840339120787 -0.001692965232054418 0.0 2.148455551084145e-15 3.6410704384733705 48.04392591610705 3.8462803087436255 -0.01911658360603876 0.0 0.10785802453756332 -1.042185131703512 -1.8874743620501917 -1.8842175642596644 1.5659202337265015 0.31018319725990295 0.0 0.0 -0.0 0.0 0.0 0.0 0.4165649712085724 -0.0274658240377903 3.9724884033203125 0.4015045464038849 -0.01570129580795765 -0.1099090725183487 0.4302978813648224 -0.02288818545639515 3.9724884033203125 0.4104767143726349 -0.01345825381577015 -0.1031799390912056 0.3530111935823272 -0.1186459404541342 0.4822731578642794 1.9448040417906747 -2.3591787360989245 -0.0849891804966532 0.0 0.0 0.0 0.0 0.0 0.0 -5.075826343738792 -11.77265609494343 5.25300138542973 3.193637869296334 -0.15635965550555148 -1.7620936412152917 0.35298355645612434 -0.11865933845239308 0.48225571578807436 1.9446462009715462 -2.3592169468044437 -0.08502117995136049 0.0 0.0 0.0 0.0 0.0 0.0 0 27.12999153137207 27.37999153137207 30.19999122619629 30.709991455078125 31.6099910736084 37.3699836730957 0.448729 7 253 253 253 253 253 253 1 0.16482611000537872 1.2466847896575928 -9.655813217163086 0.0 1.0 0.0 48.25174331665039 48.25174331665039 0.5729187726974487 48.137001037597656 47.92499923706055 48.01499938964844 47.97100067138672 48.029998779296875 48.07600021362305 0 1
8837.752 0.10784156900279296 -1.0421716527030194 -1.8875006155463847 -1.8842755992692144 1.5659043897540974 0.3102633278612584 0.0 0.0 0.0 0.0 0.0 0.0 0.0 0.0 0.0 0.0 0.0 0.0 1.538990857485971e-16 0.2606167234481625 4.186244874333019 0.33357840339120787 -0.001692965232054418 0.0 2.148455551084145e-15 3.6410704384733705 48.04392591610705 3.8462803087436255 -0.01911658360603876 0.0 0.10785802453756332 -1.042185131703512 -1.8874743620501917 -1.8842652479754847 1.5659443140029907 0.31020718812942505 0.0 0.0 -0.0 0.0 0.0 0.0 0.4531860947608948 -0.0366210974752903 3.9747300148010254 0.4172058403491974 -0.004486084450036287 -0.1121521145105362 0.4302978813648224 -0.02288818545639515 3.9724884033203125 0.4104767143726349 -0.01345825381577015 -0.1031799390912056 0.3529964991759877 -0.11864080831739171 0.48226902594705995 1.9447557254694903 -2.3591800806213854 -0.08505720740558295 0.0 0.0 0.0 0.0 0.0 0.0 -5.37643564880363 -13.147125396303817 5.477404276140124 3.411696985537753 -0.04158869666213974 -1.8146500524099436 0.35298355645612434 -0.11865933845239308 0.48225571578807436 1.9446462009715462 -2.3592169468044437 -0.08502117995136049 0.0 0.0 0.0 0.0 0.0 0.0 0 27.12999153137207 27.37999153137207 30.19999122619629 30.709991455078125 31.6099910736084 37.3699836730957 0.460932 7 253 253 253 253 253 253 1 0.17081978917121887 1.2556753158569336 -9.646822929382324 0.0 1.0 0.0 48.25174331665039 48.25174331665039 0.6803395748138428 48.16699981689453 47.95500183105469 48.029998779296875 47.95500183105469 48.029998779296875 48.07600021362305 0 1
8838.248 0.10784156900279296 -1.0421716527030194 -1.8875006155463847 -1.8842755992692144 1.5659043897540974 0.3102633278612584 0.0 0.0 0.0 0.0 0.0 0.0 0.0 0.0 0.0 0.0 0.0 0.0 1.538990857485971e-16 0.2606167234481625 4.186244874333019 0.33357840339120787 -0.001692965232054418 0.0 2.148455551084145e-15 3.6410704384733705 48.04392591610705 3.8462803087436255 -0.01911658360603876 0.0 0.10784604400396347 -1.042197052632467 -1.8874743620501917 -1.8842533270465296 1.5659202337265015 0.31023114919662476 0.0 0.0 -0.0 0.0 0.0 0.0 0.4440308213233948 -0.01831054873764515 3.9792137145996094 0.4306641221046448 -0.008972168900072575 -0.0942077711224556 0.4302978813648224 -0.02288818545639515 3.9724884033203125 0.4104767143726349 -0.01345825381577015 -0.1031799390912056 0.353003553343137 -0.1186509446473444 0.4822660148967164 1.9447068247013295 -2.359204338094399 -0.08502532156775511 0.0 0.0 0.0 0.0 0.0 0.0 -5.063136863651497 -13.465029717037375 5.741570045473845 3.557472024240112 0.2536771036896402 -1.596153583727668 0.35298355645612434 -0.11865933845239308 0.48225571578807436 1.9446462009715462 -2.3592169468044437 -0.08502117995136049 0.0 0.0 0.0 0.0 0.0 0.0 0 27.12999153137207 27.37999153137207 30.19999122619629 30.709991455078125 31.6099910736084 37.3699836730957 0.454837 7 253 253 253 253 253 253 1 0.14684507250785828 1.252678394317627 -9.61385726928711 0.0 1.0 0.0 48.25174331665039 48.25174331665039 0.7161448001861572 48.12200164794922 47.939998626708984 48.01499938964844 47.97100067138672 48.01499938964844 48.07600021362305 0 1
8838.743999999999 0.10784156900279296 -1.0421716527030194 -1.8875006155463847 -1.8842755992692144 1.5659043897540974 0.3102633278612584 0.0 0.0 0.0 0.0 0.0 0.0 0.0 0.0 0.0 0.0 0.0 0.0 1.538990857485971e-16 0.2606167234481625 4.186244874333019 0.33357840339120787 -0.001692965232054418 0.0 2.148455551084145e-15 3.6410704384733705 48.04392591610705 3.8462803087436255 -0.01911658360603876 0.0 0.10786963999271393 -1.042173210774557 -1.8874858061419886 -1.8842294851886194 1.5659202337265015 0.31020718812942505 0.0 0.0 -0.0 0.0 0.0 0.0 0.4165649712085724 0.02288818545639515 3.9792137145996094 0.3947754204273224 -0.011215210892260075 -0.0942077711224556 0.4302978813648224 -0.02288818545639515 3.9724884033203125 0.4082336723804474 -0.01345825381577015 -0.1031799390912056 0.35300291259509414 -0.11864297703938197 0.4822687671388834 1.9447825340934513 -2.3591823670317353 -0.08499592423478881 0.0 0.0 0.0 0.0 0.0 0.0 -3.6161097030056792 -12.767366492060475 5.228316043891362 3.4471559222805 0.1768992183535008 -1.5842556327283488 0.35298355645612434 -0.11865933845239308 0.48225571578807436 1.9446462009715462 -2.3592169468044437 -0.08502117995136049 0.0 0.0 0.0 0.0 0.0 0.0 0 27.12999153137207 27.37999153137207 30.19999122619629 30.709991455078125 31.6099910736084 37.3699836730957 0.441048 7 253 253 253 253 253 253 1 0.13785456120967865 1.2586721181869507 -9.616854667663574 0.0 1.0 0.0 48.25174331665039 48.25174331665039 0.7519552707672119 48.152000427246094 47.939998626708984 48.01499938964844 47.95500183105469 48.01499938964844 48.07600021362305 0 1
8839.24 0.10784156900279296 -1.0421716527030194 -1.8875006155463847 -1.8842755992692144 1.5659043897540974 0.3102633278612584 0.0 0.0 0.0 0.0 0.0 0.0 0.0 0.0 0.0 0.0 0.0 0.0 1.538990857485971e-16 0.2606167234481625 4.186244874333019 0.33357840339120787 -0.001692965232054418 0.0 2.148455551084145e-15 3.6410704384733705 48.04392591610705 3.8462803087436255 -0.01911658360603876 0.0 0.10785802453756332 -1.042197052632467 -1.8874743620501917 -1.8842414061175745 1.5659202337265015 0.3101951777935028 0.0 0.0 -0.0 0.0 0.0 0.0 0.4440308213233948 0.004577637184411287 3.9590375423431396 0.4284210503101349 -0.01570129580795765 -0.1009368970990181 0.4302978813648224 -0.02288818545639515 3.9724884033203125 0.4104767143726349 -0.01345825381577015 -0.1031799390912056 0.3530084476929012 -0.11864630580242468 0.48226705141033666 1.9447702557130733 -2.3591662140770464 -0.08501729655859239 0.0 0.0 0.0 0.0 0.0 0.0 -4.233269323296388 -13.465411070151298 6.3317920266075856 3.628685373657138 0.5289202670549404 -1.6944372653670807 0.35298355645612434 -0.11865933845239308 0.48225571578807436 1.9446462009715462 -2.3592169468044437 -0.08502117995136049 0.0 0.0 0.0 0.0 0.0 0.0 0 27.12999153137207 27.37999153137207 30.19999122619629 30.709991455078125 31.6099910736084 37.3699836730957 0.431065 7 253 253 253 253 253 253 1 0.1558355987071991 1.2586721181869507 -9.634835243225098 0.0 1.0 0.0 48.25174331665039 48.25174331665039 0.7161448001861572 48.152000427246094 47.939998626708984 48.01499938964844 47.939998626708984 48.01499938964844 48.06100082397461 0 1
